!!!!SEGMENT: pl-wumfc--n39188--001-002_stojowski-zygmunt--sonate-op-18-ii.krn
!!!cenid: 18xx:4444
!!!COM: Stojowski, Zygmunt
!!!COM-rismID: pe41019736
!!!CDT: 1870-1946
!!!CNT: Polish
!!!OPR: Sonate op. 18
!!!OTL: II.
!!!OMV: 002
!!!PDT: 1898
!!!AGN: Secular; Sonate
!!!YEC: Copyright 2022 Narodowy Instytut Fryderyka Chopina (https://polishscores.org)
!!!YEM: License CC-BY-4.0 (https://creativecommons.org/licenses/by/4.0)
!!!SMS-siglum: PL-Wumfc
!!!SMS-shelfmark: N39188
!!!SMS-variant:
!!!SMS-altvar:
!!!SMS-shelfwork: 001-002 M
!!!NIFC-rismSourceID: 1001162595
!!!NIFC-rismChildID: 1001162595
!!!NIFC-islandoraID: pl-wumfc:6191
!!!URL-pdf-islandora: https://repozytorium.nifc.pl/islandora/object/pl-wumfc%3A6191/datastream/PDF/view
!!!URL-scan: https://polish.musicsources.pl/pl/lokalizacje/galeria/druki-muzyczne/12321/14 @EN{Scan on Polish Music Sources Website} @PL{Skany w portalu Dziedzictwo Muzyki Polskiej w otwartym dostępie}
!!!IIIF:
!!!ONB-nifc: UWAGA: proszę przygotować partyturę z głosów (partia wiolonczeli z dedykowanego jej zapisu od str. 32 a nie partii przypominającej dla fortepianu)
!!!AIN: 1 cello 1 piano
!!!key: E
**kern	**fing	**kern	**fing	**dynam	**kern	**fing	**dynam
*part2	*	*part2	*	*part2	*part1	*	*part1
*staff3	*	*staff2	*	*staff2/3	*staff1	*	*
*group2	*	*group2	*	*	*group1	*	*
*IGacmp	*	*IGacmp	*	*	*IGsolo	*	*
*ICklav	*	*ICklav	*	*	*ICstr	*	*
*Ipiano	*	*Ipiano	*	*	*Icello	*	*
*I"PIANO.	*	*I"PIANO.	*	*	*I"VIOLONCELLE.	*	*
*I'pf	*	*I'pf	*	*	*I'vlc	*	*
*clefF4	*	*clefG2	*	*	*clefF4	*	*
*kcancel	*	*kcancel	*	*	*kcancel	*	*
*k[f#c#g#d#]	*	*k[f#c#g#d#]	*	*	*k[f#c#g#d#]	*	*
*E:	*	*E:	*	*	*E:	*	*
*M4/4	*	*M4/4	*	*	*M4/4	*	*
*met(c)	*	*met(c)	*	*	*met(c)	*	*
=1	=1	=1	=1	=1	=1	=1	=1
!	!	!	!	!	!LO:TX:t=P:problem:oznaczenia smyczkowania w dół, Bartok pizzicato (nad pięciolinią) w źródle odwrócone	!	!
!	!	!	!	!	!LO:TX:a:B:t=Andante.	!	!
!	!	!LO:TX:a:B:t=Andante.	!	!	!LO:TX:b:i:t=espress.	!	!
4E: 4BB: 4EE~:/	.	4g#: 4e: 4B: 4G#~>:/	.	p	2G#\	.	.
4e: 4B: 4E~:\	.	4gg#: 4ee: 4b: 4g#~:\	.	.	.	.	.
4r	.	4r	.	.	(4F#\	.	.
4E 4GG#~>/	.	4b 4e 4B~>/	.	.	4E\)	.	.
=2	=2	=2	=2	=2	=2	=2	=2
*	*	*	*below	*	*	*	*
!	!	!LO:TX:t=P:problem:łuczek pod oznaczeniem palcowania	!	!	!	!	!
4F#: 4BB: 4FF#:~>/	.	4b 4a 4B 4A~>/	11	.	(4.E\	.	.
4f#: 4B: 4F#~:\	.	4bb 4aa 4b 4a~\	.	.	.	.	.
.	.	.	.	.	8C#/)	.	.
4r	.	4r	.	.	(4D#\	.	.
4G# 4BB 4GG#/	.	4b 4e 4B/	.	.	8E\L	.	.
.	.	.	.	.	8C#\J)	.	.
=3	=3	=3	=3	=3	=3	=3	=3
4F# 4AA/	.	4b 4f# 4d# 4B/	.	.	(4.F#\	.	.
4B 4A\	.	4bb 4dd# 4b\	.	.	.	.	.
.	.	.	.	.	8G#\)	.	.
4r	.	4r	.	.	(4A\	.	.
!	!	!LO:S:s=1:note:problem=note-level slur	!	!LO:HP:a:t=poco cresc.	!	!	!
4BB 4AA/	.	[4b (>4d# [4B/	.	<	12G#~\L)	.	.
.	.	.	.	.	12A~\	.	.
.	.	.	.	.	12B~\J	.	.
=4	=4	=4	=4	=4	=4	=4	=4
!	!	!LO:S:s=1:note:problem=note-level slur	!	!	!	!	!
4G# 4C# 4GG#/	.	4b] 4e#X) 4B/]	.	.	(4.c#\	.	.
4g# 4c# 4G#\	.	4ccc# 4bb 4ee#X 4cc#\	.	.	.	.	.
.	.	.	.	.	8d#\)	.	.
4r	.	4r	.	.	(4en\	.	.
4A#X: 4C#: 4FF#:/	.	4een 4a#X 4f# 4en/	.	.	4c#\)	.	.
=5	=5	=5	=5	=5	=5	=5	=5
4r	.	4r	.	.	(4.B\	.	<
4B 4F# 4BB\	.	4dd# 4b 4f# 4d#/	.	.	.	.	.
.	.	.	.	.	8A\)	.	.
4r	.	4r	.	.	(4G#\	.	.
4d#: 4G#: 4BB#X:\	.	4ff# 4dd# 4g# 4f#\	.	.	4f#\)	.	.
!LO:LB:g=original	!	!	!	!	!	!	!
=6	=6	=6	=6	=6	=6	=6	=6
4c# 4G# 4C#\	.	4ee 4cc# 4g# 4e/	.	.	(4.e\	.	.
4cc#>: 4g#>: 4c#>:\	.	4eee 4ccc# 4gg# 4ee/	.	.	.	.	.
.	.	.	.	.	8c#\)	.	.
4r	.	4r	.	.	(4B\	.	.
*	*	*	*	*	*clefC4	*	*
4F#: 4BB: 4DD#:/	.	4b 4a 4f# 4B/	.	.	4a\)	.	.
!	!	!	!	!	!LO:LB:g=original	!	!
=7	=7	=7	=7	=7	=7	=7	=7
4E: 4BB: 4EE:/	.	4b: 4e: 4B:/	.	mf	(4a\	.	f
4g#: 4e: 4B: 4G#:\	.	4bb: 4ee: 4b:\	.	.	8g#\L)	.	.
.	.	.	.	.	([8b\J	.	.
4r	.	4r	.	.	8b\L]	.	.
.	.	.	.	.	8g#\)	.	.
4E:: 4BB:: 4EE::/	.	4g#:: 4B:: 4G#::/	.	>	8f#~\	.	>
.	.	.	.	.	8e~\J	.	.
=8	=8	=8	=8	=8	=8	=8	=8
4F#: 4BB: 4FF#:/	.	4b 4a 4B 4A/	.	.	(4.e\	.	.
4f#: 4B: 4F#:\	.	4bb 4aa 4b 4a\	.	.	.	.	.
.	.	.	.	.	8c#\)	.	.
4r	.	4r	.	.	(8d#\L	.	.
.	.	.	.	.	8f#\	.	.
4G# 4BB 4GG#/	.	4b 4e 4B/	.	]	8e\	.	.
.	.	.	.	.	8c#\J)	.	]
=9	=9	=9	=9	=9	=9	=9	=9
*^	*	*^	*	*	*	*	*
4r	4ryy	.	4r	4ryy	.	.	4.f#\	.	.
*Xtuplet	*	*	*Xtuplet	*	*	*	*	*	*
(12DD#~/L	4DD#\	.	(12B~/L	4B\	.	.	.	.	.
12BB~/	.	.	12f#~/	.	.	<	.	.	.
.	.	.	.	.	.	.	(8g#\	.	.
12F#~/J)	.	.	12b~/J)	.	.	.	.	.	<
4r	4ryy	.	4r	4ryy	.	.	4a\)	.	.
4B#X:: 4G#:: 4F#:: 4Dn^::\	4ryy	.	4gg#:: 4b#X:: 4f#^::\	4ryy	.	.	8g#~\L	.	.
.	.	.	.	.	.	.	8f#~\J	.	.
=10	=10	=10	=10	=10	=10	=10	=10	=10	=10
4r	4ryy	.	4r	4ryy	.	.	4.g#\	.	.
(12EE~/L	4EE\	.	(12c#~/L	4c#\	.	.	.	.	.
12C#~/	.	.	12g#~/	.	.	.	.	.	.
.	.	.	.	.	.	.	(8a#X\	.	.
12G#~/J)	.	.	12cc#~/J)	.	.	.	.	.	.
4r	4ryy	.	4r	4ryy	.	.	4b\)	.	[
4c##X:: 4A#X:: 4G#:: 4E^::\	4ryy	.	4aa#X:: 4cc##X:: 4g#^::\	4ryy	.	.	8a#\L	.	.
.	.	.	.	.	.	.	8g#\J	.	.
*v	*v	*	*	*	*	*	*	*	*
!LO:LB:g=original	!	!	!	!	!	!	!	!
=11	=11	=11	=11	=11	=11	=11	=11	=11
*	*	*clefF4	*	*	*	*	*	*
4r	.	4r	4ryy	.	.	4.b\	.	.
2.GG# 2.GGG#/	.	(4d#X 4D#X\	2B/	.	f <	.	.	.
.	.	.	.	.	.	8cc#\	.	.
.	.	4e 4E\	.	.	.	4dd#X\	.	.
.	.	4e#X 4E#X\	4ryy	.	.	8cc#~\L	.	.
.	.	.	.	.	[	8b~\J	.	.
*	*	*clefG2	*	*	*	*	*	*
*	*	*v	*v	*	*	*	*	*
=12	=12	=12	=12	=12	=12	=12	=12
*	*	*^	*	*	*	*	*
!LO:TX:b:i:rj:t=con 8-::dur=12q:ext=ud:problem:text with extention lines	!	!	!	!	!	!	!	!
(<2DD#X 2DDD#Xyy\	.	4f# 4F#</	(2.B\	.	.	(8.b\L	.	.
.	.	.	.	.	.	16cc#\Jk)	.	.
.	.	4f##X 4F##X</	.	.	.	[4dd#X\	.	.
4EE 4EEEyy\	.	2g# 2G#</)	.	.	.	8dd#\]	.	.
.	.	.	.	.	.	4cc#v\	.	.
.	.	.	.	.	>	.	.	.
4EE#X 4EEE#Xyy)\	.	.	4c##X\)	.	.	.	.	.
.	.	.	.	.	]]	(8b\	.	.
!	!	!	!	!	!	!LO:LB:g=original	!	!
=13	=13	=13	=13	=13	=13	=13	=13	=13
!	!	!LO:N:acc=n#	!	!	!	!	!	!
2FF# 2FFF#yy\	.	(4f#X 4F#X</	2d# 2B\	.	.	8f#\)	.	.
.	.	.	.	.	.	(4d#\	.	.
.	.	4g# 4G#</	.	.	>	.	.	.
.	.	.	.	.	.	8f#\)	.	>
!	!	!	!LO:N:n=2:acc=n#	!	!	!	!	!
2EE 2EEEyy\	.	4g##X 4G##X</	2f# 2c#X\	.	.	(4..c#\	.	.
.	.	.	.	.	]	.	.	.
.	.	4a#X 4A#X</)	.	.	.	.	.	.
.	.	.	.	.	.	16B\)	.	]]
=14	=14	=14	=14	=14	=14	=14	=14	=14
!	!	!LO:TX:b:i:t=espress.	!	!	!	!	!	!
4DD# 4DDD#yy/	.	&(8ff# 8f#/	2b\	.	.	2.B\	.	.
.	.	4dd# 4d#/	.	.	.	.	.	.
4EE 4EEEyy/	.	.	.	.	.	.	.	.
.	.	8ff# 8f#/	.	.	<	.	.	.
4.FF# 4.FFF#yy/	.	2cc# 2c#/	&&(4b\	.	.	.	.	.
.	.	.	4a#X\&)&&)	.	.	(4A#X\	.	.
.	.	.	.	.	[	.	.	.
8FF##X 8FFF##Xyy/	.	.	.	.	.	.	.	.
*	*	*v	*v	*	*	*	*	*
!LO:LB:g=original	!	!	!	!	!	!	!
=15	=15	=15	=15	=15	=15	=15	=15
*	*	*^	*	*	*	*	*
4GG# 4GGG#/	.	(8bb 8b/	2ee\	.	.	4B\)	.	.
!	!	!	!	!	!LO:HP:t=cresc. ed affretando	!	!	!
.	.	.	.	.	<	.	.	.
.	.	4gg# 4g#/	.	.	.	.	.	.
4AA 4AAA/	.	.	.	.	.	4c#\	.	<
.	.	8bb 8b/	.	.	.	.	.	.
4BB 4BBB/	.	4.ff# 4.f#/	2an\	.	.	(4dn\	.	.
4BB#X 4BBB#X/	.	.	.	.	.	4d#X\)	.	[[
.	.	8ee 8e/)	.	.	.	.	.	.
=16	=16	=16	=16	=16	=16	=16	=16	=16
!	!	!	!	!	!	!LO:TX:b:i:t=affretando	!	!
4C# 4CC#/	.	(>8bb 8ee 8b/	2ryy	.	.	4e\	.	.
.	.	4gg# 4ee 4g#/	.	.	.	.	.	.
4C##X 4CC##X/	.	.	.	.	.	[4ee\	.	.
.	.	8bb 8ee 8b/	.	.	.	.	.	.
4D# 4DD#/	.	2ff##X 2f##X/	8ee\	.	.	8ee\]	.	.
.	.	.	4dd#\	.	.	(4dd#X\	.	.
4E 4EE/	.	.	.	.	.	.	.	.
.	.	.	8cc#\)	.	.	8cc#\)	.	.
=17	=17	=17	=17	=17	=17	=17	=17	=17
!	!	!	!	!	!LO:DY:t=%s con passione	!LO:TX:b:i:t=con passione	!	!
4G#: 4BB: 4EE#X:/	.	(8bb 8b/	4cc#\	.	f	4cc#\	.	.
.	.	4gg# 4g#/	.	.	.	.	.	.
4A: 4BB: 4FF#:/	.	.	4dd#\	.	.	(8.dd#X\L	.	.
.	.	8bb 8b/)	.	.	.	.	.	.
.	.	.	.	.	.	16cc#\Jk)	.	.
4G#: 4BB: 4EE#:/	.	8bb 8b/	4cc#\	.	.	(8.cc#\L	.	.
.	.	(4gg# 4g#/	.	.	.	.	.	.
.	.	.	.	.	.	16dd#\Jk)	.	.
4A: 4BB: 4FF#:/	.	.	4dd#\	.	.	(8.dd#\L	.	.
.	.	8bb 8b/)	.	.	.	.	.	.
.	.	.	.	.	.	16cc#\Jk)	.	.
=18	=18	=18	=18	=18	=18	=18	=18	=18
4G#: 4BB: 4EE#X:/	.	8bb 8b/	4cc#\	.	.	4cc#\	.	.
!	!	!	!	!	!LO:HP:t=calando e dim.	!	!	!
.	.	(4ff# 4f#/	.	.	>	.	.	.
!	!	!	!	!	!	!	!	!LO:HP:t=calando e dim.
4F#: 4EEn:/	.	.	4cc#\	.	.	(8a\L	.	>
.	.	8aa 8a/)	.	.	.	8f#\J)	.	.
4F#: 4BB: 4DD#X:/	.	8aa 8a/	4b\	.	.	4b\	.	.
.	.	(4ee 4e/	.	.	.	.	.	.
4E: 4DDn:/	.	.	4b\	.	.	(8g#\L	.	.
.	.	8gg# 8g#/)	.	.	.	8e\J)	.	.
!LO:PB:g=original	!	!	!	!	!	!	!	!
=19	=19	=19	=19	=19	=19	=19	=19	=19
4E: 4CC#:/	.	4a#X\	8gg# 8g#/	.	.	4e\	.	.
.	.	.	(>4ee 4e/	.	.	.	.	.
4E: 4DDn:/	.	4b\	.	.	.	([2gn\	.	.
.	.	.	8ggn 8gn/)	.	.	.	.	.
4E: 4CC#:/	.	2a#\	(>8gg 8g/	.	.	.	.	.
.	.	.	4.ee 4.e/)	.	.	.	.	.
4E: 4CCn:/	.	.	.	.	.	8g\L]	.	.
.	.	.	.	.	.	8e\J)	.	.
*	*	*v	*v	*	*	*	*	*
!	!	!	!	!	!LO:LB:g=original	!	!
=20	=20	=20	=20	=20	=20	=20	=20
4r	.	4r	.	.	(4.e\	.	<
4BB: 4EE: 4BBB:/	.	4b 4g#X 4e 4B/	.	p	.	.	.
.	.	.	.	.	8f#\)	.	.
.	.	.	.	.	.	.	[
4r	.	4r	.	.	(4g#X\	.	.
4BB-X: 4EE: 4BBB-X:/	.	4ccn 4g# 4cn/	.	.	8f#\L	.	.
.	.	.	.	.	8e\J)	.	.
*	*	*	*	*	*clefF4	*	*
=21	=21	=21	=21	=21	=21	=21	=21
4AA 4EE 4AAA/	.	4cc#X 4e 4c#X/	.	.	(8.E\L	.	.
.	.	.	.	.	16F#\Jk	.	.
4a: 4e: 4A:\	.	4ccc# 4ee 4cc#\	.	.	[4Gn\	.	.
4r	.	4r	.	.	8G\])	.	.
.	.	.	.	.	(4F#\	.	.
8cn:: 8F#:: 8AA::\	.	8dd#X:: 8ccn:: 8f#:: 8d#X::/	.	.	.	.	.
8r	.	8r	.	.	8E\	.	.
=22	=22	=22	=22	=22	=22	=22	=22
*	*	*^	*	*	*	*	*
(4GG# 4GGG#/	.	(<4b 4B/	2e\	.	.	8B\)	.	.
.	.	.	.	.	.	(4G#X\	.	.
4AA 4AAA/	.	4cc#X 4c#X/	.	.	.	.	.	.
.	.	.	.	.	.	8B\)	.	.
4.BB 4.BBB/	.	4cc##X 4a 4c##X/	2ryy	.	.	2F#\	.	.
.	.	4dd#X 4b 4d#X/)	.	.	.	.	.	.
8AA 8AAA/)	.	.	.	.	.	.	.	.
=23	=23	=23	=23	=23	=23	=23	=23	=23
!	!	!LO:TX:b:i:t=espress.	!	!	!	!	!	!
(4GG# 4GGG#/	.	(8bb 8b\	2ee/	.	.	4BB/	.	.
.	.	4gg# 4g#\	.	.	.	.	.	.
4AA 4AAA/	.	.	.	.	.	4C#/	.	.
!	!	!	!	!	!	!	!	!LO:HP:t=poco a poco cresc.
.	.	.	.	.	.	.	.	<
.	.	8bb 8b\	.	.	.	.	.	.
4BB 4BBB/	.	4..ff# 4..f#\	2a/	.	<	(4C##X/	.	.
4BB#X 4BBB#X/)	.	.	.	.	.	4D#/)	.	.
.	.	16ee 16e\)	.	.	[	.	.	.
.	.	.	.	.	.	.	.	.
!LO:LB:g=original	!	!	!	!	!	!	!	!
=24	=24	=24	=24	=24	=24	=24	=24	=24
(4C# 4CC#/	.	(8ee 8e/	2g#\	.	.	4E\	.	.
!	!	!	!	!	!LO:HP:t=cresc. ed affretando	!	!	!
.	.	4cc# 4c#/	.	.	<	.	.	.
*	*	*	*	*	*	*clefC4	*	*
4Dn 4DDn/	.	.	.	.	.	[2.e\	.	.
.	.	8ee 8e/	.	.	.	.	.	.
4C# 4CC#/	.	4.b 4.B/	2gn\	.	.	.	.	.
4Cn 4CCn/)	.	.	.	.	.	.	.	.
.	.	8a#X 8A#X/)	.	.	.	.	.	.
=25	=25	=25	=25	=25	=25	=25	=25	=25
*^	*	*	*	*	*	*	*	*
!	!	!	!	!	!	!	!LO:TX:b:i:t=ed affretando	!	!
4BB 4BBB/	2EE\	.	8ee 8e/	4g#X^\	.	.	4e\]	.	.
.	.	.	(4cc# 4c#/	.	.	.	.	.	.
4AA#X 4AAA#X/	.	.	.	4gn^\	.	.	4gn\	.	.
.	.	.	8ee 8e/)	.	.	.	.	.	.
4AAn 4AAAn/	[>2BBB\	.	2b 2B/	4.f#\	.	.	[2b\	.	.
4GG# 4GGG#/	.	.	.	.	.	.	.	.	.
.	.	.	.	8e#X\	.	.	.	.	.
*v	*v	*	*	*	*	*	*	*	*
=26	=26	=26	=26	=26	=26	=26	=26	=26
4GGn 4BBB] 4GGGn/	.	8een 8en/	4b\	.	f	4b\]	.	.
.	.	(4cc# 4c#/	.	.	.	.	.	.
4FF# 4FFF#/	.	.	4a#X^\	.	.	(4a#X\	.	.
.	.	8ee 8e/)	.	.	.	.	.	.
4GG 4GGG/	.	8ee 8e/	4b\	.	.	4b\)	.	.
!	!	!LO:TX:b:i:t=allargando	!	!	!	!	!	!
.	.	(4cc# 4c#/	.	.	.	.	.	.
!	!	!	!	!	!	!LO:TX:b:i:t=allar_	!	!
4FF# 4FFF#/	.	.	4a#\	.	<	(4a#\	.	.
.	.	8ee 8e/)	.	.	.	.	.	.
!	!	!	!	!	!	!LO:LB:g=original	!	!
=27	=27	=27	=27	=27	=27	=27	=27	=27
*^	*	*	*	*	*	*	*	*
!	!	!	!	!	!	!	!LO:TX:b:i:t=gando	!	!
4GGn 4GGGn/	2.ryy	.	8ee 8e/	4b\	.	.	4b\)	.	.
.	.	.	(4ccn 4cn/	.	.	[	.	.	.
4FF# 4FFF#/	.	.	.	4an 4e\	.	.	(8an\L	.	.
.	.	.	8ee 8e/)	.	.	.	8e\J)	.	.
4FFn 4FFFn/	.	.	4b 4a 4e 4B/	4ryy	.	.	[4a\	.	.
!	!	!	!LO:TX:a:i:t=m.g.	!	!	!	!	!	!
4Gn:: 4D#:: 4BB:: 4FFn::/;	4bb>/	.	4b:: 4gn:: 4d#:: 4B;::\	4ryy	.	.	8a\]	.	.
.	.	.	.	.	.	.	8r;	.	.
*v	*v	*	*	*	*	*	*	*	*
*	*	*v	*v	*	*	*	*	*
!LO:LB:g=original	!	!	!	!	!	!	!
=28||	=28||	=28||	=28||	=28||	=28||	=28||	=28||
*k[f#]	*	*k[f#]	*	*	*k[f#]	*	*
*M3/4	*	*M3/4	*	*	*M3/4	*	*
!	!	!	!	!LO:DY:t=%s pesante	!LO:TX:a:B:t=2	!	!
!	!	!	!	!	!LO:N:vis=0	!	!
8.EEL 8.EEE/	.	8.eL 8.B 8.E/	.	ff	1.r	.	.
16FF#/Jk	.	16f#Jk 16F#/	.	.	.	.	.
(4.GG/	.	(4.g 4.G/	.	.	.	.	.
8BB/)	.	8b 8B/)	.	.	.	.	.
=29	=29	=29	=29	=29	=29	=29	=29
8BB 8BBB'/	.	8dd 8b 8f# 8d'/	.	.	.	.	.
8r	.	8r	.	.	.	.	.
2E 2BB 2EE/	.	2b 2g 2e 2B/	.	.	.	.	.
*	*	*clefF4	*	*	*	*	*
=30	=30	=30	=30	=30	=30	=30	=30
8BB 8BBB/	.	8d 8F# 8D'\	.	p	4r	.	.
8r	.	8r	.	.	.	.	.
2BB 2EE;/	.	2B 2G 2E;\	.	.	2r;	.	.
*	*	*	*	*	*clefF4	*	*
=31	=31	=31	=31	=31	=31	=31	=31
!	!	!LO:TX:a:B:t=Allegretto molto modearto.	!	!	!LO:TX:a:B:t=Allegretto molto moderato.	!	!
4r	.	4r	.	.	(8Ev\L	.	p
.	.	.	.	.	16rD	.	.
.	.	.	.	.	16F#'\Jk)	.	.
!	!	!	!	!LO:DY:t=molto %s	!LO:TX:b:i:t=con grazia	!	!
4r	.	4r	.	p	4.G\	.	.
([4BB 4EE/	.	(4B 4G 4E\	.	.	.	.	.
.	.	.	.	.	(8B\	.	.
=32	=32	=32	=32	=32	=32	=32	=32
4BB] 4BBB/)	.	4d 4F#'\)	.	.	8d\)	.	.
.	.	.	.	.	8r	.	.
4r	.	4r	.	.	2Bu\	.	.
([4BB 4EE/	.	(4B 4G\	.	.	.	.	.
=33	=33	=33	=33	=33	=33	=33	=33
4BB] 4BBB'/)	.	4d 4F#'\)	.	.	(8d'\L	.	.
.	.	.	.	.	16rA	.	.
.	.	.	.	.	16c'\Jk)	.	.
4r	.	4r	.	.	4.B\	.	.
(4BB 4EE/	.	(4B (4G\	.	.	.	.	.
.	.	.	.	.	(8d\	.	.
!LO:LB:g=original	!	!	!	!	!	!	!
=34	=34	=34	=34	=34	=34	=34	=34
4AA 4AAA'/)	.	4c#X 4G'\))	.	.	8f#\)	.	.
.	.	.	.	.	8r	.	.
4r	.	4r	.	.	(4.d\	.	.
(4AA 4DD/	.	(4d 4F#\	.	.	.	.	.
.	.	.	.	.	8e\)	.	.
!	!	!	!	!	!LO:LB:g=original	!	!
=35	=35	=35	=35	=35	=35	=35	=35
!	!	!LO:TX:b:i:t=poco rit.	!	!	!LO:TX:a:i:t=poco rit.	!	!
4AA'/)	.	4c#X 4G'\)	.	.	(8f#\L	.	.
.	.	.	.	.	16rA	.	.
.	.	.	.	.	16e'\Jk)	.	.
4r	.	4r	.	.	(4d\	.	.
4AA:: 4DD::/	.	4d:: 4F#;::\	.	.	4A;\)	.	.
=36	=36	=36	=36	=36	=36	=36	=36
!	!	!LO:TX:a:i:t=a tempo	!	!	!LO:TX:a:i:t=a tempo	!	!
4r	.	4r	.	.	8Bv\	.	.
.	.	.	.	.	8r	.	.
4r	.	4r	.	.	2Bu\	.	.
([4BB 4BBB/	.	(4d#X 4F#\	.	.	.	.	.
=37	=37	=37	=37	=37	=37	=37	=37
8BB] 8EE/)	.	8e 8G\)	.	.	(8B\L	.	.
8r	.	8r	.	.	16rA	.	.
.	.	.	.	.	16c'\Jk)	.	<
4r	.	4r	.	.	([2B\	.	.
([4BB 4EE/	.	(4e 4G\	.	.	.	.	.
=38	=38	=38	=38	=38	=38	=38	=38
8BB] 8FF#/)	.	8d#X 8A\)	.	.	8B\L]	.	[[
8r	.	8r	.	.	16rA	.	.
.	.	.	.	.	16c'\Jk)	.	.
4r	.	4r	.	.	4B\	.	.
*	*	*	*	*	*clefC4	*	*
4r	.	4r	.	.	(8d#X\L	.	.
.	.	.	.	.	8b\J)	.	.
*	*	*clefG2	*	*	*	*	*
!LO:PB:g=original	!	!	!	!	!	!	!
=39	=39	=39	=39	=39	=39	=39	=39
4r	.	4r	.	.	2b\	.	.
2GG/	.	[2e 2B/	.	.	.	.	.
.	.	.	.	.	([4b\	.	.
=40	=40	=40	=40	=40	=40	=40	=40
2AA/	.	2e] 2c/	.	.	8b\L]	.	.
.	.	.	.	.	8a\J)	.	.
.	.	.	.	.	4g\	.	.
[4D 4DD/	.	(>[4f# 4c/	.	.	(4a\	.	.
=41	=41	=41	=41	=41	=41	=41	=41
*	*	*^	*	*	*	*	*
2.D] 2.GG/	.	2f#/]	2.B\	.	.	8.b\L	.	.
.	.	.	.	.	.	16d\Jk)	.	.
.	.	.	.	.	.	[2b\	.	>
.	.	4fn/	.	.	.	.	.	.
*	*	*v	*v	*	*	*	*	*
=42	=42	=42	=42	=42	=42	=42	=42
4AA/	.	4e 4c/)	.	.	8b\L]	.	.
.	.	.	.	.	(8a\J	.	.
4r	.	4r	.	.	4g\	.	]
4BB/	.	4d#X 4A/	.	.	8f#\L	.	.
.	.	.	.	.	8a\J)	.	.
!	!	!	!	!	!LO:LB:g=original	!	!
=43	=43	=43	=43	=43	=43	=43	=43
4r	.	4r	.	.	8g~\L	.	.
.	.	.	.	.	8f#~\J	.	.
4BB 4EE/	.	4e 4G/	.	.	4e\	.	.
4r	.	4r	.	.	4B\	.	.
=44	=44	=44	=44	=44	=44	=44	=44
4r	.	4r	.	.	8A#X~\L	.	.
.	.	.	.	.	8B~\J	.	.
4C#X 4FF#/	.	4e 4A#X/	.	.	(4c#X\	.	.
4r	.	4r	.	.	8e\L	.	.
.	.	.	.	.	8d#X\J)	.	.
!LO:LB:g=original	!	!	!	!	!	!	!
=45	=45	=45	=45	=45	=45	=45	=45
2.FF# 2.BBB/	.	8.r	.	.	[2.f#\	.	.
.	.	(16d#X [16B (16F#/	.	.	.	.	.
.	.	4f# 4d# 4B'>/]))	.	.	.	.	.
.	.	4b 4f# 4d#'>/	.	.	.	.	.
=46	=46	=46	=46	=46	=46	=46	=46
*	*	*^	*	*	*	*	*
!	!	!LO:TX:b:i:t=espress.	!	!	!	!	!	!
(8.BBB/L	.	(8cc#XL 8e/	2b\	.	.	4f#\]	.	.
.	.	8dd#XJ 8f#/	.	.	.	.	.	.
16FF#/Jk	.	.	.	.	.	.	.	.
4F#'\)	.	4ee 4g'/)	.	.	.	(4e\	.	.
.	.	.	.	.	<	.	.	.
4r	.	(8gg/L	4ee 4a#X\	.	.	4c#X\	.	.
.	.	8ff#/J)	.	.	[[	.	.	.
*	*	*v	*v	*	*	*	*	*
=47	=47	=47	=47	=47	=47	=47	=47
(8.BBB/L	.	(2bb 2dd#X 2b\	.	.	8f#\)	.	.
.	.	.	.	.	8r	.	.
16FF#/Jk	.	.	.	.	.	.	.
8F#\)	.	.	.	.	[2f#\	.	.
8r	.	.	.	.	.	.	.
4r	.	[4dd# 4b [4f#/	.	>	.	.	.
=48	=48	=48	=48	=48	=48	=48	=48
*	*	*^	*	*	*	*	*
(8.BBB/L	.	4dd#/]	8a#XL 8f#\]	.	.	4f#\]	.	.
.	.	.	[8bJ 8d#X\	.	.	.	.	.
16FF#/Jk	.	.	.	.	]	.	.	.
8F#\)	.	4cc#X 4b] 4e/)	4ryy	.	.	(4g\	.	.
8r	.	.	.	.	.	.	.	.
(4FF#/	.	(8eeL 8g/	4a#\	.	.	4A#X\)	.	.
.	.	8dd#XJ 8f#/)	.	.	.	.	.	.
*	*	*v	*v	*	*	*	*	*
=49	=49	=49	=49	=49	=49	=49	=49
8.BBB/L	.	(>2b 2f# 2d#X/	.	.	(4.B\	.	.
16FF#/Jk	.	.	.	.	.	.	.
8BB/)	.	.	.	.	.	.	.
8r	.	.	.	.	8c#X\)	.	.
4r	.	[4f# [>4d# 4B/)	.	.	([4d#X\	.	.
!LO:LB:g=original	!	!	!	!	!	!	!
=50	=50	=50	=50	=50	=50	=50	=50
*	*	*^	*	*	*	*	*
(>[4BBB/	.	4f#] 4d#/]	(8d#yL 8A#\	.	.	8d#\L]	.	>
.	.	.	8c\J	.	.	8e\J	.	.
.	.	.	.	.	.	.	.	]
8FF# 8BBB/])	.	4e 4G/	2A#\)	.	.	8g\)	.	.
.	.	.	.	.	.	.	.	.
8r	.	.	.	.	.	8r	.	.
.	.	.	.	.	>	.	.	.
*	*	*clefF4	*	*	*	*	*	*
4r	.	(8d#XL 8F#'\	.	.	.	8f#u\	.	pp
.	.	8cJ 8E'\	.	.	]]	8r	.	.
*	*	*v	*v	*	*	*	*	*
!	!	!	!	!	!LO:LB:g=original	!	!
=51	=51	=51	=51	=51	=51	=51	=51
8FF# 8BBB/	.	8B 8D#X'\)	.	.	8d#Xu\	.	.
8r	.	8r	.	.	8r	.	.
4r	.	4r	.	.	2Bu\	.	.
4r	.	4r	.	.	.	.	.
=52	=52	=52	=52	=52	=52	=52	=52
!	!	!	!	!	!LO:TX:a:B:t=1	!	!
8FF#'/	.	8dn: 8A: 8E':\	.	pp	2.r	.	.
8r	.	8r	.	.	.	.	.
[2BBB/	.	[2B [2D#X\	.	.	.	.	.
=53	=53	=53	=53	=53	=53	=53	=53
8BBB/]	.	8B] 8D#\]	.	.	8d#Xu\L	.	.
8r	.	8r	.	.	16r	.	.
.	.	.	.	.	16c#Xv\Jk	.	.
4r	.	4r	.	.	2Bu\	.	.
4r	.	4r	.	.	.	.	.
=54	=54	=54	=54	=54	=54	=54	=54
!	!	!	!	!	!LO:TX:a:B:t=1	!	!
8FF#'/	.	8dn:L 8A: 8E':\	.	.	2.r	.	.
8r	.	8c'\J	.	.	.	.	.
2BBB/	.	2B 2D#X\	.	.	.	.	.
*	*	*	*	*	*clefF4	*	*
=55	=55	=55	=55	=55	=55	=55	=55
2.r	.	2.r	.	.	8D/L	.	f
.	.	.	.	.	16r	.	.
.	.	.	.	.	16C/Jk	.	.
.	.	.	.	.	[2BB/	.	.
!LO:LB:g=original	!	!	!	!	!	!	!
=56	=56	=56	=56	=56	=56	=56	=56
2.r	.	2.r	.	.	8BB/L]	.	.
.	.	.	.	.	.	.	<
.	.	.	.	.	(8C/	.	.
.	.	.	.	.	8.D/	.	[
.	.	.	.	.	.	.	>
.	.	.	.	.	16C/Jk)	.	.
!	!	!	!	!	!LO:TX:b:i:t=ad lib.	!	!
.	.	.	.	.	[4BB;/	.	]
=57	=57	=57	=57	=57	=57	=57	=57
2.r	.	2.r	.	.	12BB/L]	.	.
.	.	.	.	.	(12C/	.	.
!	!	!	!	!	!LO:TX:b:i:t=poco a poco acceler.	!	!
.	.	.	.	.	12D/J	.	.
.	.	.	.	.	16C/LL	.	.
.	.	.	.	.	16D/	0	.
.	.	.	.	.	16D#X/	1	.
.	.	.	.	.	16E/JJ	.	.
.	.	.	.	.	16D#\LL	.	.
.	.	.	.	.	16E\	.	.
.	.	.	.	.	16F#\	1	.
.	.	.	.	.	16G\JJ)	.	.
!	!	!	!	!	!LO:LB:g=original	!	!
=58	=58	=58	=58	=58	=58	=58	=58
2.r	.	2.r	.	.	(16F#\LL	1	<
.	.	.	.	.	16G\	.	.
.	.	.	.	.	16G#X\	.	.
.	.	.	.	.	16A\JJ)	.	.
.	.	.	.	.	(16A\LL	0	.
.	.	.	.	.	16A#X\	.	.
.	.	.	.	.	16Bn\	.	.
.	.	.	.	.	16c\JJ	.	.
*	*	*	*	*	*clefC4	*	*
.	.	.	.	.	16B\LL	2	.
.	.	.	.	.	16c\	.	[
.	.	.	.	.	16d#X\	1	.
.	.	.	.	.	16e\JJ)	.	.
=59	=59	=59	=59	=59	=59	=59	=59
2.r	.	2.r	.	.	(16d#X\LL	.	.
.	.	.	.	.	16e\	.	.
.	.	.	.	.	16f#\	1	.
.	.	.	.	.	16g\JJ	.	.
.	.	.	.	.	16f#\LL	.	.
.	.	.	.	.	16g\)	.	.
.	.	.	.	.	(16a\	1	.
.	.	.	.	.	16a#X\JJ	.	.
.	.	.	.	.	16b\LL	1	.
.	.	.	.	.	16cc\	.	.
.	.	.	.	.	16b\	.	.
.	.	.	.	.	16cc\JJ)	.	.
=60	=60	=60	=60	=60	=60	=60	=60
!	!	!LO:TX:b:i:t=rit.	!	!	!LO:TX:b:i:t=rit.	!	!
2.r	.	2.r	.	.	[2.btt\	.	>]
!LO:PB:g=original	!	!	!	!	!	!	!
=61	=61	=61	=61	=61	=61	=61	=61
!	!	!LO:TX:a:i:t=a tempo ma poco animato	!	!	!LO:TX:a:i:t=a tempo ma poco animato	!	!
8EE'/L	.	8E'\L	.	p	16b\LL]	.	p
*	*	*	*	*	*	*below	*
.	.	.	.	.	(16cc\	2	.
16rAA	.	16rC	.	.	16dd#X\	.	.
16FF#'/Jk	.	16F#'\Jk	.	.	16cc\JJ	.	.
8GG'/	.	8G'\	.	.	16b\LL	.	.
.	.	.	.	.	16a""\	.	.
8r	.	8r	.	.	16g\	.	.
.	.	.	.	.	16f#\JJ	.	.
8BB'/	.	8B'\	.	.	16g\LL	.	.
.	.	.	.	.	16f#\	.	.
8r	.	8r	.	.	16e\	3	.
.	.	.	.	.	16dn\JJ	.	.
!	!	!	!	!	!LO:LB:g=original	!	!
=62	=62	=62	=62	=62	=62	=62	=62
8D'/	.	8d'\	.	.	16B\LL)	.	<
.	.	.	.	.	(16d\	.	.
8r	.	8r	.	.	16e\	.	.
.	.	.	.	.	16f#\JJ	.	.
(2BB/	.	(2B\	.	.	16g\LL	.	[
.	.	.	.	.	16f#\	.	>
.	.	.	.	.	16e\	.	.
.	.	.	.	.	16d\JJ	.	.
.	.	.	.	.	16B\LL	.	.
.	.	.	.	.	16d\	.	]
.	.	.	.	.	16e\	.	.
.	.	.	.	.	16d\JJ)	.	.
=63	=63	=63	=63	=63	=63	=63	=63
8D'/L)	.	8d'\L)	.	.	(16B\LL	.	<
.	.	.	.	.	16d\	.	.
16r	.	16rA	.	.	16e\	.	.
16C/Jk	.	16c\Jk	.	.	16f#\JJ	.	.
(4.BB/	.	(4.B\	.	.	16g\LL	.	[
!	!	!	!	!LO:HP:t=poco cresc.	!	!	!
.	.	.	.	<	16f#\	.	>
.	.	.	.	.	16e\	.	.
.	.	.	.	.	16d\JJ	.	.
.	.	.	.	.	16c#X\LL	.	.
.	.	.	.	.	16d\	.	]
8D/	.	8d\	.	.	16f#\	.	.
.	.	.	.	.	16g\JJ)	.	.
*	*	*	*	*	*clefG2	*	*
!LO:LB:g=original	!	!	!	!	!	!	!
=64	=64	=64	=64	=64	=64	=64	=64
8F# 8AA'/)	.	8f# 8c#X'\)	.	.	(16f#/LL	.	<
.	.	.	.	.	16a""</	.	.
8r	.	8r	.	.	16b/	.	.
.	.	.	.	.	16cc#X/JJ	.	[
(4.D 4.DD/	.	(4.d 4.F#\	.	.	16dd\LL	.	.
.	.	.	.	.	16cc#\	.	.
.	.	.	.	.	16b\	.	.
.	.	.	.	.	16a\JJ	.	.
.	.	.	.	.	16f#/LL	.	.
.	.	.	.	.	16a/	.	.
8E\)	.	8e\)	.	.	16b/	.	.
.	.	.	.	.	16a/JJ)	.	.
=65	=65	=65	=65	=65	=65	=65	=65
8F#L 8AA'/	.	8f#L 8c#X'\	.	.	(16f#/LL	.	.
.	.	.	.	.	16a/	.	.
16r	.	16r	.	.	16b/	.	.
!	!	!LO:TX:b:i:t=poco a poco più animato	!	!	!	!	!
16E/Jk	.	16e\Jk	.	.	16cc#X/JJ	.	.
!	!	!	!	!	!LO:TX:b:i:t=poco a poco	!	!
(2D 2DD/	.	(2d 2F#\	.	.	16dd\LL	.	.
.	.	.	.	.	16cc#\	.	.
.	.	.	.	.	16b\	.	.
.	.	.	.	.	16a\JJ	.	.
.	.	.	.	.	16f#/LL	.	.
.	.	.	.	.	16a/	.	.
.	.	.	.	.	16b/	.	.
.	.	.	.	.	16a/JJ)	.	.
!	!	!	!	!	!LO:LB:g=original	!	!
=66	=66	=66	=66	=66	=66	=66	=66
!	!	!	!	!	!LO:TX:b:i:t=più animato	!	!
8BB 8DD#X'/)	.	8B 8F#'\)	.	.	(16f#/LL	.	.
.	.	.	.	.	16a/	.	.
8r	.	8r	.	.	16b/	.	.
.	.	.	.	.	16a/JJ	.	.
*	*	*	*	*	*clefC4	*	*
2BB 2EE~/	.	2B 2G~\	.	.	16g\LL	.	.
.	.	.	.	.	16f#\	.	.
.	.	.	.	.	16e\	.	.
.	.	.	.	.	16d#X\JJ	.	.
.	.	.	.	.	16e\LL	.	<
.	.	.	.	.	16dn\	.	.
.	.	.	.	.	16c\	.	.
.	.	.	.	.	16B\JJ)	.	.
!LO:LB:g=original	!	!	!	!	!	!	!
=67	=67	=67	=67	=67	=67	=67	=67
8FF#'/	.	8BL 8D#X'\	.	.	(16d#X\LL	.	.
.	.	.	.	.	16c\	.	.
8r	.	16rC	.	.	16B\	.	.
.	.	16c\Jk	.	.	16A\JJ	.	.
.	.	.	.	.	.	.	[
*	*	*	*	*	*clefF4	*	*
[4GG~/	.	[4B [4E~\	.	.	16B\LL	.	.
.	.	.	.	.	16A\	.	.
.	.	.	.	.	16G\	.	.
.	.	.	.	.	16F#\JJ	.	.
8GG/]	.	8B] 8E\]	.	.	16G\LL	.	.
.	.	.	.	.	16F#\	.	.
8r	.	8r	.	.	16E\	.	.
.	.	.	.	.	16E-X\JJ	.	.
=68	=68	=68	=68	=68	=68	=68	=68
8FF# 8FFF#/	.	16r	.	.	8D\)	.	fp
.	.	(16D\LL	.	p	.	.	.
8r	.	16A\	.	.	8r	.	.
.	.	16dJJ 16c\)	.	.	.	.	.
*	*	*clefG2	*	*	*	*	*
2GG 2GGG/	.	16r	.	.	2Du\	.	.
.	.	(16B-X/LL	.	.	.	.	.
.	.	16c/	.	<	.	.	.
.	.	16d/JJ)	.	.	.	.	.
.	.	(16d/LL	.	.	.	.	.
.	.	16g/	.	.	.	.	.
.	.	16b-X/	.	[	.	.	.
.	.	16dd/JJ)	.	.	.	.	.
=69	=69	=69	=69	=69	=69	=69	=69
8AA 8AAA/	.	16r	.	.	8Dv\L	.	.
*	*	*clefF4	*	*	*	*	*
.	.	(16F#\LL	.	.	.	.	.
8r	.	16c\	.	<	16r	.	.
.	.	16e-X\JJ)	.	.	16E-Xu\Jk	.	.
2BB-X 2BBB-X/	.	16r	.	.	([2Dv\	.	<
*	*	*clefG2	*	*	*	*	*
.	.	(16d/LL	.	.	.	.	.
.	.	16f#/	.	.	.	.	.
.	.	16g/JJ)	.	.	.	.	.
.	.	(16g\LL	.	.	.	.	.
.	.	16b-X\	.	.	.	.	.
.	.	16dd\	.	.	.	.	.
.	.	16gg\JJ)	.	.	.	.	.
*	*	*clefF4	*	*	*	*	*
!LO:LB:g=original	!	!	!	!	!	!	!
=70	=70	=70	=70	=70	=70	=70	=70
2.CC/	.	16r	.	.	8.D\L]	.	.
.	.	(16D\LL	.	.	.	.	.
.	.	16E-X\	.	.	.	.	.
.	.	16G\JJ	.	.	16E-X'\Jk)	.	.
.	.	16F#\LL	.	.	4D\	.	.
.	.	16G\	.	.	.	.	.
.	.	16A\	.	.	.	.	.
.	.	16B-X\JJ	.	.	.	.	.
*	*	*clefG2	*	*	*	*	*
.	.	16A/LL	.	.	(8F#\L	.	<
.	.	16d/	.	.	.	.	.
.	.	16f#/	.	.	8d\J)	.	[[
.	.	16a/JJ)	.	.	.	.	.
=71	=71	=71	=71	=71	=71	=71	=71
*^	*	*^	*	*	*	*	*
N(>16BBB-X/LL	8ryy	.	4ryy	4ryy	.	.	2d\	.	.
16BB-X/	.	.	.	.	.	.	.	.	.
16D/	[8D\	.	.	.	.	.	.	.	.
16F#/JJ	.	.	.	.	.	.	.	.	.
!LO:TX:t=P:problem:mixed beam	!	!	!	!	!	!	!	!	!
16A/LL	2D\]	.	16ryy	8ryy	.	.	.	.	.
16d>\	.	.	[<8.d/	.	.	.	.	.	.
16f#>\	.	.	.	8ryy	.	.	.	.	.
16a>\JJ	.	.	.	.	.	.	.	.	.
.	.	.	.	.	.	.	(8qD/	.	.
4G 4BB-/	.	.	[4dd: [4g: 4d:/_N)	4ryy	.	.	4d\)	.	.
*v	*v	*	*	*	*	*	*	*	*
*	*	*v	*v	*	*	*	*	*
*	*	*	*	*	*clefC4	*	*
!	!	!	!	!	!LO:PB:g=original	!	!
=72	=72	=72	=72	=72	=72	=72	=72
*	*	*^	*	*	*	*	*
*	*	*	*^	*	*	*	*	*
!	!	!	!	!	!	!LO:DY:t=%s con fuoco	!	!	!LO:DY:t=%s con fuoco
(16CC/LL	.	(8dd]L 8d/]	2g\]	4ryy	.	f	(4e-X\	.	f
16GG/	.	.	.	.	.	.	.	.	.
16E-X/	.	8ccJ 8c/	.	.	.	.	.	.	.
16G/JJ)	.	.	.	.	.	.	.	.	.
4r	.	4b-X 4B-X/	.	16rf	.	.	4g\)	.	.
.	.	.	.	(<16g\LL	.	.	.	.	.
.	.	.	.	16e-X\	.	.	.	.	.
.	.	.	.	16B-\JJ)	.	.	.	.	.
4FFn/	.	4cc/	4ryy	(<16a\LL	.	.	(8fn~\L	.	.
.	.	.	.	16fn\	.	.	.	.	.
.	.	.	.	16e-\	.	.	8e-~\J	.	.
.	.	.	.	16c\JJ)	.	.	.	.	.
!LO:PB:g=original	!	!	!	!	!	!	!	!	!
=73	=73	=73	=73	=73	=73	=73	=73	=73	=73
!	!	!LO:TX:t=P:problem:brak zakończenia łuku	!	!	!	!	!	!	!
N(16BBB-X/LL	.	4dd 4b-X 4d/)	4ryy	4ryy	.	.	8d~\L	.	.
16FFn/	.	.	.	.	.	.	.	.	.
16BB-X/	.	.	.	.	.	.	16r	.	.
16D/JJ	.	.	.	.	.	.	16Fn'\Jk)	.	.
16Fn\LL	.	8r	8ryy	8ryy	.	.	2d\	.	.
16B-X\JJ	.	.	.	.	.	.	.	.	.
8r	.	8reyy	16d/LL	8ryy	.	.	.	.	.
.	.	.	16fn/JJN)	.	.	.	.	.	.
4AA 4AAA/	.	[4b-X/	(16g\LL	16ryy	.	.	.	.	.
.	.	.	16f\	8.f/	.	.	.	.	.
.	.	.	16d\	.	.	.	.	.	.
.	.	.	[16B-X\JJ)	.	.	.	.	.	.
*	*	*	*v	*v	*	*	*	*	*
=74	=74	=74	=74	=74	=74	=74	=74	=74
*	*	*	*	*	*	*	*above	*
N(>16AAA-X/LL	.	4b-] 4g-X 4d-X 4B-/]	4ryy	.	.	(8.e-X\L	2	.
16AA-X/	.	.	.	.	.	.	.	.
16E-X/	.	.	.	.	.	.	.	.
16G-X/JJ	.	.	.	.	.	16B-X\Jk)	.	.
!	!	!LO:TX:a:i:t=string.	!	!	!	!LO:TX:a:i:t=string.	!	!
4r	.	16B-X/LL	4ryy	.	.	(4e-\	.	<
.	.	16d-/	.	.	.	.	.	.
.	.	16e-X/	.	.	.	.	.	.
.	.	16g-/JJN)	.	.	.	.	.	.
4AA-X/	.	4b-- 4B--~/	(16B--\LL	.	.	4en'\)	.	[[
.	.	.	16g-\	.	.	.	.	.
.	.	.	16en\	.	.	.	.	.
.	.	.	16c\JJ)	.	.	.	.	.
=75	=75	=75	=75	=75	=75	=75	=75	=75
!LO:TX:t=P:problem:łamany łuk	!	!	!	!	!	!	!	!
N(>16DD-X/LL	.	4a-X 4fn 4d-X 4A-X~>/	4ryy	.	.	(4..fn\	.	.
16AA-X/	.	.	.	.	.	.	.	.
16D-X/	.	.	.	.	.	.	.	.
16Fn/JJ	.	.	.	.	.	.	.	.
16A-X\LL	.	8r	4ryy	.	.	.	.	.
16d-X\JJ	.	.	.	.	.	.	.	.
8r	.	16f/LL	.	.	.	.	.	.
.	.	16a-/JJN)	.	.	.	16d-X\)	.	.
4C 4CC/	.	4ffn/	(16dd-X\LL	.	.	4a-X\	.	.
.	.	.	16b-X\	.	.	.	.	.
.	.	.	16a-\	.	.	.	.	.
.	.	.	16f\JJ)	.	.	.	.	.
!LO:LB:g=original	!	!	!	!	!	!	!	!
=76	=76	=76	=76	=76	=76	=76	=76	=76
*^	*	*	*	*	*	*	*	*
16BBBn/LL	8ryy	.	(>8.ff#L 8.cc#X 8.an 8.en/	4ryy	.	.	(4an""\	.	.
16BBn/	.	.	.	.	.	.	.	.	.
[[<16An/	8A\	.	.	.	.	.	.	.	.
[16c#X/JJ	.	.	16cc#X/Jk	.	.	.	.	.	.
4c#] 4A\]]	4ryy	.	4ff# 4f#/	16f#\LL	.	.	4cc#X\)	.	.
.	.	.	.	16cc#\	.	.	.	.	.
.	.	.	.	16a\	.	.	.	.	.
.	.	.	.	16f#\JJ	.	.	.	.	.
4d#X 4B\	4ryy	.	4ff##X/	16a\LL	.	.	4ccn\	.	.
.	.	.	.	16dd#X\	.	.	.	.	.
.	.	.	.	16ccn\	.	.	.	.	.
.	.	.	.	16a\JJ)	.	.	.	.	.
*v	*v	*	*	*	*	*	*	*	*
=77	=77	=77	=77	=77	=77	=77	=77	=77
8.eL 8.B 8.E\	.	2gg#X 2ee 2b 2g#X/	4ryy	.	.	(4..b\	.	.
(16BB\Jk	.	.	.	.	.	.	.	.
4E 4EE~/)	.	.	8rb	.	.	.	.	.
.	.	.	(16G#X/LL	.	.	.	.	.
.	.	.	16B/JJ	.	.	16g#X\)	.	.
4D#X 4DD#X~/	.	4ryy	16g#LL 16e/	.	.	4b\	.	.
.	.	.	16c#X/	.	.	.	.	.
.	.	.	16B/	.	.	.	.	.
.	.	.	16G#/JJ)	.	.	.	.	.
=78	=78	=78	=78	=78	=78	=78	=78	=78
!	!	!LO:TX:b:i:t=poco slarg.	!	!	!	!LO:TX:b:i:t=poco slarg.	!	!
(16DDn\LL	.	(8.aaL 8.ee 8.ccn 8.a 8.gn'>/	4ryy	.	.	(4cc\	.	.
16Dn\	.	.	.	.	.	.	.	.
[[<16c\	.	.	.	.	.	.	.	.
[16e\JJ)	.	16ee/Jk	.	.	.	.	.	.
4e] 4c\]]	.	4aa 4a'/	16a\LL	.	.	4ee\)	.	.
.	.	.	16ee\	.	<	.	.	.
.	.	.	16cc\	.	.	.	.	.
.	.	.	16a\JJ	.	.	.	.	.
(4C 4CC/	.	4aa#X 4a#X/	16a#\LL	.	.	4dd#X\	.	.
.	.	.	16ff#\	.	[	.	.	.
.	.	.	16dd#X\	.	.	.	.	.
!	!	!	!LO:TX:t=P:problem:zakończenie łuku	!	!	!	!	!
.	.	.	16a#\JJ	.	.	.	.	.
*	*	*v	*v	*	*	*	*	*
!LO:LB:g=original	!	!	!	!	!	!	!
=79	=79	=79	=79	=79	=79	=79	=79
!	!	!LO:TX:a:i:t=a tempo con anima	!	!	!LO:TX:a:i:t=a tempo con anima	!	!
4BB 4BBB'/)	.	4bb 4ff# 4dd#X 4b\)	.	.	(16dd#X\LL	.	ff
.	.	.	.	.	16b\JJ)	.	.
.	.	.	.	.	8r	.	.
*	*	*clefF4	*	*	*clefF4	*	*
4r	.	8.r	.	.	2B\	.	.
!	!	!LO:TX:t=P:problem:łuk	!	!LO:DY:rj	!	!	!
.	.	16B 16BB\	.	ff	.	.	.
*8ba	*	*	*	*	*	*	*
[4CC [4CCC/	.	4r	.	.	.	.	.
=80	=80	=80	=80	=80	=80	=80	=80
4CC] 4CCC/]	.	4r	.	.	(8BL 8E 8GG 8CCu/	.	.
.	.	.	.	.	16rF	.	.
.	.	.	.	.	16c/Jk)	.	.
4r	.	8.r	.	.	2B\	.	.
!	!	!LO:TX:t=P:problem:łuk	!	!	!	!	!
.	.	16B 16BB\	.	.	.	.	.
[4CC#X [4CCC#X/	.	4r	.	.	.	.	.
!	!	!	!	!	!LO:LB:g=original	!	!
=81	=81	=81	=81	=81	=81	=81	=81
4CC#] 4CCC#/]	.	4r	.	.	(8.BL 8.Fn 8.GG\	.	.
.	.	.	.	.	16c\Jk)	.	.
8.DDL 8.DDD/	.	4r	.	.	4B\	.	.
*X8ba	*	*	*	*	*	*	*
[16FF#Jk [16FFF#/	.	.	.	.	.	.	.
*	*	*	*	*	*clefC4	*	*
!	!	!LO:TX:t=P:problem:pionowa klamra łukowa	!	!	!	!	!
4FF#] 4FFF#/]	.	4d#X 4B 4D#X\	.	.	(8d#X\L	.	.
.	.	.	.	.	8b\J)	.	.
=82	=82	=82	=82	=82	=82	=82	=82
!	!	!	!	!	!LO:TX:b:i:t=poco a poco allargando	!	!
4r	.	8.r	.	.	2b\	.	.
!	!	!LO:TX:t=P:problem:łuk	!	!	!	!	!
.	.	16e 16B 16E\	.	.	.	.	.
!	!	!	!	!LO:HP:t=poco a poco allargando e dim.	!	!	!
8.GGL 8.GGG/	.	4r	.	>	.	.	.
N(>16GJk 16GG/	.	.	.	.	.	.	.
*	*	*clefG2	*	*	*	*	*
4r	.	4ee 4b 4e/N)	.	.	([4b\	.	.
=83	=83	=83	=83	=83	=83	=83	=83
(16AA\LL	.	16r	.	.	8b\L]	.	.
16c#X\JJ)	.	(16e/LL	.	.	.	.	.
8r	.	16cc#X/	.	.	16r	.	.
.	.	16ee/JJ	.	.	16a'\Jk)	.	.
4r	.	8eee 8ccc#X\)	.	.	(4g\	.	.
.	.	8r	.	.	.	.	.
*	*	*clefF4	*	*	*	*	*
4DD/	.	[4f# 4cn [4F#\	.	.	4a\)	.	.
!LO:LB:g=original	!	!	!	!	!	!	!
=84	=84	=84	=84	=84	=84	=84	=84
*	*	*^	*	*	*	*	*
[2.GG 2.GGG/	.	8f#] 8F#\]	4B/	.	.	(8b\L	.	.
.	.	8r	.	.	.	16re	.	.
.	.	.	.	.	.	16d'\Jk)	.	.
.	.	(4d 4D\	[2B/	.	.	[2b\	.	.
.	.	4d#X 4D#X\	.	.	.	.	.	.
*	*	*v	*v	*	*	*	*	*
=85	=85	=85	=85	=85	=85	=85	=85
2GG] 2CC/	.	2e 2B] 2E\)	.	.	8b\L]	.	.
.	.	.	.	.	(8a\J	.	.
.	.	.	.	.	4g\	.	.
!	!	!LO:TX:t=P:problem:mixed beam	!	!	!	!	!
8ryy	.	(16FFF#</LL	.	.	4a\)	.	.
.	.	16FF#</	.	.	.	.	.
8ryy	.	16E\	.	.	.	.	.
.	.	16eJJ 16A\)	.	.	.	.	.
=86	=86	=86	=86	=86	=86	=86	=86
!	!	!LO:TX:t=P:problem:mixed beam	!	!	!	!	!
8ryy	.	(16BBB</LL	.	.	(8b\L	.	.
.	.	16FF#</	.	.	.	.	.
8ryy	.	16D#X\	.	.	16re	.	.
.	.	16d#XJJ 16A\)	.	.	16f#'\Jk)	.	.
4r	.	4r	.	>	([2b\	.	>
*	*	*clefG2	*	*	*	*	*
!LO:TX:b:rj:i:t=con 8::dur=2q:ext=ud:problem:text with extention lines	!	!	!	!	!	!	!
4CC 4CCCyy/	.	(4e [4G/	.	.	.	.	.
=87	=87	=87	=87	=87	=87	=87	=87
!	!	!LO:TX:a:i:t=rit. assai	!	!	!	!	!
4CC# 4CCC#Xyy/	.	4e#X 4G/]	.	.	8.b\L]	.	]
!	!	!	!	!	!LO:TX:b:i:t=rit. assai	!	!
.	.	.	.	.	16f#'\Jk)	.	.
.	.	.	.	]	.	.	.
!	!	!LO:TX:a:t=P:problem:mixed beam	!	!	!	!	!
4ryy	.	16DDD</LL	.	.	4bv\	.	.
.	.	16DD</	.	.	.	.	.
.	.	16F#\	.	.	.	.	.
.	.	16f#\JJ	.	.	.	.	.
!	!	!LO:TX:a:t=P:problem:mixed beam	!	!	!	!	!
4ryy	.	16DDD#X</LL	.	.	[4Bu\	.	.
.	.	16DD#X</	.	.	.	.	.
.	.	16Fn\	.	.	.	.	.
.	.	16f##X\JJ)	.	.	.	.	.
!LO:PB:g=original	!	!	!	!	!LO:LB:g=original	!	!
=88||	=88||	=88||	=88||	=88||	=88||	=88||	=88||
*k[f#c#g#d#]	*	*k[f#c#g#d#]	*	*	*k[f#c#g#d#]	*	*
*M4/4	*	*M4/4	*	*	*M4/4	*	*
*met(c)	*	*met(c)	*	*	*met(c)	*	*
!	!	!LO:TX:a:B:t=Tempo I. (Andante.)	!	!LO:DY:t=%s espress.	!LO:TX:a:B:t=Tempo I. (Andante)	!	!LO:DY:t=%s espress.
16r	.	(2gg# 2ee 2b 2g#\	.	p	4B\]	.	p
(16EEE/LL	.	.	.	.	.	.	.
16EE/	.	.	.	.	.	.	.
16BB/JJ	.	.	.	.	.	.	.
16G#\LL	.	.	.	.	(4c#\	.	.
16E\	.	.	.	.	.	.	.
16e\	.	.	.	.	.	.	.
16G#\JJ)	.	.	.	.	.	.	.
16r	.	4ff# 4b 4f#\	.	.	4d#\	.	.
(16FF#/LL	.	.	.	.	.	.	.
16A/	.	.	.	.	.	.	.
16BB/JJ)	.	.	.	.	.	.	.
16r	.	4ee 4b 4e/)	.	.	4e\)	.	.
(16GG#/LL	.	.	.	.	.	.	.
16B/	.	.	.	.	.	.	.
16E/JJ)	.	.	.	.	.	.	.
=89	=89	=89	=89	=89	=89	=89	=89
*	*	*^	*	*	*	*	*
16r	.	(4.ee 4.e/	2b 2a\	.	.	2a\	.	.
(16FFF#/LL	.	.	.	.	.	.	.	.
16FF#/	.	.	.	.	.	.	.	.
16BB/JJ	.	.	.	.	.	.	.	.
16C#\LL	.	.	.	.	.	.	.	.
16BB\	.	.	.	.	.	.	.	.
16A\	.	8cc# 8c#/	.	.	.	.	.	.
16B\JJ)	.	.	.	.	.	.	.	.
16r	.	4dd# 4d#/	(8g#\L	.	.	(8g#\L	.	.
(16BBB/LL	.	.	.	.	.	.	.	.
16BB/	.	.	8f#\J)	.	.	8f#\	.	.
16B/JJ)	.	.	.	.	.	.	.	.
16r	.	8eeL 8e/	4b\	.	.	8b\	.	.
(16GGG#/LL	.	.	.	.	.	.	.	.
16GG#/	.	8cc#J 8c#/)	.	.	.	8cc#\J)	.	.
16E/JJ)	.	.	.	.	.	.	.	.
=90	=90	=90	=90	=90	=90	=90	=90	=90
!	!	!	!	!	!LO:HP:t=poco a poco cresc.	!	!	!
16r	.	(4.ff# 4.f#/	2b\	.	<	2b\	.	.
(16DDD#/LL	.	.	.	.	.	.	.	.
16DD#/	.	.	.	.	.	.	.	.
16BB/JJ	.	.	.	.	.	.	.	.
16F#\LL	.	.	.	.	.	.	.	.
16BB\	.	.	.	.	.	.	.	.
16B\	.	8gg# 8g#/	.	.	.	.	.	.
16F#\JJ)	.	.	.	.	.	.	.	.
16r	.	8aaL 8a/	4b\	.	.	(4c#\	.	.
(16FF#/LL	.	.	.	.	.	.	.	.
16BB/	.	8ee#X 8e#X/	.	.	.	.	.	.
16A/JJ)	.	.	.	.	.	.	.	.
16r	.	8gg# 8g#/	4dd# 4b\	.	.	4d#\)	.	.
(16AA/LL	.	.	.	.	.	.	.	.
16BB/	.	8ff#J 8f#/)	.	.	.	.	.	.
16B/JJ)	.	.	.	.	.	.	.	.
!LO:LB:g=original	!	!	!	!	!	!	!	!
=91	=91	=91	=91	=91	=91	=91	=91	=91
16r	.	(4.ccc# 4.bb 4.ee#X 4.cc#\	4.ryy	.	.	(8c#\L	.	.
(16GG#/LL	.	.	.	.	.	.	.	.
16C#/	.	.	.	.	.	8G#\J	.	.
16B/JJ	.	.	.	.	.	.	.	.
16e#X\LL	.	.	.	.	.	4B\)	.	.
16c#\	.	.	.	.	.	.	.	.
16b\	.	8ddd# 8dd#\	8ryy	.	.	.	.	.
16e#\JJ)	.	.	.	.	.	.	.	.
!	!	!	!	!	!	!LO:TX:b:i:t=cresc.-ed-un-poco-string.:ext=s:problem:text with extention lines	!	!
16r	.	4eee 4een\	2aa#X 2ff#/	.	.	(8A#X\L	.	<
(16FF#/LL	.	.	.	.	.	.	.	.
16C#/	.	.	.	.	.	8c#\J	.	.
16A#X/JJ	.	.	.	.	.	.	.	.
16en\LL	.	4ccc# 4cc#\)	.	.	.	4e\)	.	.
16c#\	.	.	.	.	.	.	.	.
16a#X\	.	.	.	.	.	.	.	.
16e\JJ)	.	.	.	.	.	.	.	.
=92	=92	=92	=92	=92	=92	=92	=92	=92
16r	.	(4.bb 4.b\	2ff# 2dd#/	.	.	(8d#\L	.	.
!	!	!LO:TX:b:i:t=poco stringendo	!	!	!	!	!	!
(16BBB/LL	.	.	.	.	.	.	.	.
16FF#/	.	.	.	.	.	8c#\)	.	.
16D#/JJ	.	.	.	.	.	.	.	.
16B\LL	.	.	.	.	.	(8d#\	.	.
16F#\	.	.	.	.	.	.	.	.
16d#\	.	8aanX 8anX\)	.	.	.	8f#\J)	.	.
16B\JJ)	.	.	.	.	.	.	.	.
16r	.	(4gg# 4ff# 4dd# 4g#\	2ryy	.	.	[2g#\	.	.
(16BBB#X/LL	.	.	.	.	.	.	.	.
16GG#/	.	.	.	.	.	.	.	.
16D#/JJ	.	.	.	.	.	.	.	.
16G#\LL	.	4fff# 4ddd# 4gg# 4ff#\)	.	.	.	.	.	.
16D#\	.	.	.	.	.	.	.	.
16d#\	.	.	.	.	.	.	.	.
16G#\JJ)	.	.	.	.	.	.	.	.
=93	=93	=93	=93	=93	=93	=93	=93	=93
16r	.	(4.eee 4.ccc# 4.ee\	2.gg#/	.	.	8g#\L]	.	[
(16CC#/LL	.	.	.	.	<	.	.	.
16GG#/	.	.	.	.	.	8f#~\	.	.
16E/JJ	.	.	.	.	.	.	.	.
16c#\LL	.	.	.	.	.	(8e\	.	.
16G#\	.	.	.	.	.	.	.	.
16e\	.	8ccc# 8cc#\)	.	.	.	8g#\J)	.	.
16c#\JJ)	.	.	.	.	.	.	.	.
16r	.	(4bb 4aa 4ff# 4b\	.	.	.	(4.b\	.	.
(16DD#/LL	.	.	.	.	.	.	.	.
16BB/	.	.	.	.	.	.	.	.
16F#/JJ	.	.	.	.	.	.	.	.
*	*	*8va	*	*	*	*	*	*
16B\LL	.	4aaa 4fff# 4bb 4aa\)	4ryy	.	[	.	.	.
16F#\	.	.	.	.	.	.	.	.
16f#\	.	.	.	.	.	8cc#\)	.	.
16B\JJ)	.	.	.	.	.	.	.	.
!LO:LB:g=original	!	!	!	!	!	!LO:LB:g=original	!	!
=94	=94	=94	=94	=94	=94	=94	=94	=94
*Xbrackettup	*	*	*	*	*	*	*	*
*tuplet	*	*	*	*	*	*	*	*
!LO:TUP:a:r=4:num=6:problem:klamra łukowa	!	!LO:TX:b:i:t=con passione	!	!	!	!	!	!LO:DY:t=poco %s
24r	.	(4aaa 4eee 4bb 4aa\	4ryy	.	.	8b~\L	.	f
(<24EE/LL	.	.	.	.	.	.	.	.
24BB/JJ	.	.	.	.	.	.	.	.
24E\LL	.	.	.	.	.	8cc#~\J	.	.
24B\	.	.	.	.	.	.	.	.
24G#\JJ	.	.	.	.	.	.	.	.
*clefG2	*	*	*	*	*	*	*	*
!LO:TUP:a:problem:klamra łukowa	!	!	!	!	!	!	!	!
24e/LL	.	8ggg#L 8gg#\	2eee/	.	.	[4b\	.	.
24B/	.	.	.	.	.	.	.	.
24g#/J	.	.	.	.	.	.	.	.
24e/L	.	[8bbbJ [<8bb\	.	.	.	.	.	.
24b/	.	.	.	.	.	.	.	.
24g#/JJ	.	.	.	.	.	.	.	.
*Xtuplet	*	*	*	*	*	*	*	*
24ee/LL	.	8bbb]L 8bb\]	.	.	.	8b\L]	.	.
24b/	.	.	.	.	.	.	.	.
24g#/J	.	.	.	.	.	.	.	.
24e/L	.	8ggg# 8gg#\	.	.	.	(8cc#\	.	.
24B/JJ)	.	.	.	.	.	.	.	.
24r	.	.	.	.	.	.	.	.
*clefF4	*	*	*	*	*	*	*	*
24r	.	8fff# 8ff#\	4bb/	.	.	8b\)	.	.
(24GG#/LL	.	.	.	.	.	.	.	.
24E/J	.	.	.	.	.	.	.	.
*	*	*	*	*	*	*clefF4	*	*
24BB/L	.	8eeeJ 8ee\)	.	.	.	([8B\J	.	.
24B/	.	.	.	.	.	.	.	.
24E/JJ)	.	.	.	.	.	.	.	.
=95	=95	=95	=95	=95	=95	=95	=95	=95
24r	.	(4.eee 4.ee/	2bb 2aa\	.	.	8B\L]	.	.
(24FFF#/LL	.	.	.	.	.	.	.	.
24FF#/J	.	.	.	.	.	.	.	.
24BB/L	.	.	.	.	.	8c#\J)	.	.
24C#/	.	.	.	.	.	.	.	.
24BB/JJ	.	.	.	.	.	.	.	.
24A\LL	.	.	.	.	.	[4B\	.	.
24B\	.	.	.	.	.	.	.	.
24c#\J	.	.	.	.	.	.	.	.
24B\L	.	8ccc# 8cc#/	.	.	.	.	.	.
24a\	.	.	.	.	.	.	.	.
24B\JJ)	.	.	.	.	.	.	.	.
24r	.	8ddd#L 8dd#/	2bb\	.	.	8B\L]	.	.
(24AA/LL	.	.	.	.	.	.	.	.
24F#/J	.	.	.	.	.	.	.	.
24BB/L	.	8fff# 8ff#/	.	.	.	(8c#\	.	.
24B/	.	.	.	.	.	.	.	.
24BB/JJ)	.	.	.	.	.	.	.	.
24r	.	8eee 8ee/	.	.	.	8B\)	.	.
(24GG#/LL	.	.	.	.	.	.	.	.
24E/J	.	.	.	.	.	.	.	.
24BB/L	.	8ccc#J 8cc#/)	.	.	.	[8BB\J	.	.
24B/	.	.	.	.	.	.	.	.
24BB/JJ)	.	.	.	.	.	.	.	.
*	*	*v	*v	*	*	*	*	*
*	*	*X8va	*	*	*	*	*
!LO:LB:g=original	!	!	!	!	!	!	!
=96	=96	=96	=96	=96	=96	=96	=96
*	*	*^	*	*	*	*	*
24r	.	(4.ff# 4.b 4.f#\	4.ryy	.	.	4BB/]	.	.
!	!	!	!	!	!LO:DY:t=più string. e sempre più %s	!	!	!
(24DD#^/LL	.	.	.	.	f	.	.	.
24BB/JJ	.	.	.	.	.	.	.	.
24F#\LL	.	.	.	.	.	.	.	.
24BB\	.	.	.	.	.	.	.	.
24F#\JJ	.	.	.	.	.	.	.	.
!	!	!	!	!	!	!LO:TX:a:i:t=più string.	!	!
24B\LL	.	.	.	.	.	4r	.	.
24F#\	.	.	.	.	.	.	.	.
24B\J	.	.	.	.	.	.	.	.
24f#\L	.	8gg# 8b 8g#\)	8ryy	.	.	.	.	.
24B\	.	.	.	.	.	.	.	.
24f#\JJ)	.	.	.	.	.	.	.	.
24r	.	(8aaL 8a/	4b\	.	.	4r	.	.
(24DD#/LL	.	.	.	.	.	.	.	.
24BB/J	.	.	.	.	.	.	.	.
24A/L	.	8ee#X 8e#X/)	.	.	.	.	.	.
24BB/	.	.	.	.	.	.	.	.
24A/JJ)	.	.	.	.	.	.	.	.
24r	.	(8gg# 8g#~/	4b#X\	.	.	(4Dn\	.	.
(24DDn^/LL	.	.	.	.	.	.	.	.
24GG#/J	.	.	.	.	.	.	.	.
24F#/L	.	8ff#J 8f#~/)	.	.	.	.	.	.
24GG#/	.	.	.	.	.	.	.	.
24F#/JJ)	.	.	.	.	.	.	.	.
=97	=97	=97	=97	=97	=97	=97	=97	=97
24r	.	(4.gg# 4.ee#X 4.cc# 4.g#\	2ryy	.	.	4C#/)	.	.
(24CC#^/LL	.	.	.	.	.	.	.	.
24GG#/J	.	.	.	.	.	.	.	.
24E#X/L	.	.	.	.	.	.	.	.
24GG#/	.	.	.	.	.	.	.	.
24E#/JJ	.	.	.	.	.	.	.	.
24B\LL	.	.	.	.	.	4r	.	.
24G#\	.	.	.	.	.	.	.	.
24B\J	.	.	.	.	.	.	.	.
24e#X\L	.	8aa#X 8cc# 8a#X\)	.	.	.	.	.	.
24B\	.	.	.	.	.	.	.	.
24e#\JJ)	.	.	.	.	.	.	.	.
24r	.	(8bbL 8b/	4cc#\	.	.	4r	.	.
(24EE#X/LL	.	.	.	.	.	.	.	.
24C#/J	.	.	.	.	.	.	.	.
24B/L	.	8ff##X 8f##X/)	.	.	.	.	.	.
24C#/	.	.	.	.	.	.	.	.
24B/JJ)	.	.	.	.	.	.	.	.
24r	.	(8aa# 8a#~/	4cc##X\	.	.	(4EE/	.	.
(24EEn^/LL	.	.	.	.	.	.	.	.
24AA#X/J	.	.	.	.	.	.	.	.
24G#/L	.	8gg#J 8g#~/)	.	.	.	.	.	.
24AA#/	.	.	.	.	.	.	.	.
24G#/JJ)	.	.	.	.	.	.	.	.
!LO:PB:g=original	!	!	!	!	!	!	!	!
=98	=98	=98	=98	=98	=98	=98	=98	=98
24r	.	(4.aa#X 4.a#X/	2ff##X 2dd#\	.	.	4DD#X/)	.	.
(24DDD#^/LL	.	.	.	.	.	.	.	.
24DD#/J	.	.	.	.	.	.	.	.
24C#/L	.	.	.	.	.	.	.	.
24AA#X/	.	.	.	.	.	.	.	.
24C#/JJ	.	.	.	.	.	.	.	.
24F##X\LL	.	.	.	.	.	4r	.	.
24C#\	.	.	.	.	.	.	.	.
24F##\J	.	.	.	.	.	.	.	.
24c#\L	.	8bb#X 8dd# 8b#X\)	.	.	.	.	.	.
24A\	.	.	.	.	.	.	.	.
24c#\JJ	.	.	.	.	.	.	.	.
8f##X\)	.	(8ccc#L 8dd# 8cc#\	2ryy	.	.	4r	.	.
8r	.	8aa#X 8a#X\)	.	.	.	.	.	.
!	!	!	!	!	!	!	!	!LO:DY:rj
24r	.	8aan 8ff#X 8een 8ccn 8an~\	.	.	.	4F# 4AA 4DDn/	.	ff
(24DDn^/LL	.	.	.	.	.	.	.	.
24AAn/J	.	.	.	.	.	.	.	.
!LO:N:acc=n#	!	!	!	!	!	!	!	!
24F#X/L	.	8ff#J 8f#~\	.	.	.	.	.	.
24AA/	.	.	.	.	.	.	.	.
24F#/JJ)	.	.	.	.	.	.	.	.
!	!	!	!	!	!	!LO:LB:g=original	!	!
=99	=99	=99	=99	=99	=99	=99	=99	=99
24r	.	(4.dddn 4.bb 4.ggn 4.ffn 4.ddn\	2ryy	.	.	4r	.	.
(24GGGn/LL	.	.	.	.	.	.	.	.
24GGn/JJ	.	.	.	.	.	.	.	.
24Fn\LL	.	.	.	.	.	.	.	.
24D#\	.	.	.	.	.	.	.	.
24F\JJ	.	.	.	.	.	.	.	.
24B\LL	.	.	.	.	.	4B 4Dn 4GGn\	.	.
24F\	.	.	.	.	.	.	.	.
24B\J	.	.	.	.	.	.	.	.
24fn\L	.	8eee 8gg 8ee\)	.	.	.	.	.	.
24d#\	.	.	.	.	.	.	.	.
24f\JJ	.	.	.	.	.	.	.	.
8b\)	.	(8fffnL 8ff\	4gg\	.	.	4r	.	.
!	!	!LO:TX:b:i:t=poco slargando	!	!	!	!LO:TX:a:i:t=poco slarg. a tempo	!	!
8r	.	8ddd 8dd\)	.	.	.	.	.	.
24r	.	8ccc#X 8aa#X 8gg#X 8ee 8cc#X~\	4ryy	.	.	4A#X 4C# 4FF#/	.	.
(24FFF#X^/LL	.	.	.	.	.	.	.	.
24FF#X/J	.	.	.	.	.	.	.	.
24E/L	.	8aa#J 8a#X'\	.	.	.	.	.	.
24C#/	.	.	.	.	.	.	.	.
24A#X/JJ)	.	.	.	.	.	.	.	.
*	*	*v	*v	*	*	*	*	*
*	*	*	*	*	*clefC4	*	*
!LO:LB:g=original	!	!	!	!	!	!	!
=100	=100	=100	=100	=100	=100	=100	=100
!	!	!LO:TX:b:i:t=a tempo	!	!	!LO:TX:b:i:t=con fuoco	!	!
2Cn 2CCn\	.	24rA<	.	.	(4.f#\	.	.
.	.	(24F#X</LL	.	.	.	.	.
.	.	24f#X 24An</J	.	.	.	.	.
.	.	24e/L	.	.	.	.	.
.	.	24f#/	.	.	.	.	.
.	.	24ff#XJJ 24an/	.	.	.	.	.
*	*	*8va	*	*	*	*	*
.	.	24ee\LL	.	.	.	.	.
.	.	24ff#\	.	.	.	.	.
.	.	24fff# 24aa\J	.	.	.	.	.
.	.	24eee\L	.	.	8g#\)	.	.
.	.	24fff#\	.	.	.	.	.
.	.	24ffff#JJ 24aaa\)	.	.	.	.	.
*	*	*X8va	*	*	*	*	*
4r	.	4r	.	.	(8a\L	.	.
.	.	.	.	.	8f#\	.	.
4BB 4BBB/	.	4b 4a 4B 4A/	.	.	8e\	.	.
.	.	.	.	.	8d#\J)	.	.
=101||	=101||	=101||	=101||	=101||	=101||	=101||	=101||
*k[f#]	*	*k[f#]	*	*	*k[f#]	*	*
N(>24AAA/LL	.	8ryy	.	.	4.a\	1	.
24AA/	.	.	.	.	.	.	.
24E/JJ	.	.	.	.	.	.	.
!	!	!LO:TX:t=P:problem:mixed beam	!	!	!	!	!
24ryy	.	24A</LL	.	.	.	.	.
24ryy	.	24c\	.	.	.	.	.
24ryy	.	24ccJJ 24e\	.	.	.	.	.
4r	.	24f#\LL	.	.	.	.	.
.	.	24cc\	.	.	.	.	.
.	.	24ccc 24ee\J	.	.	.	.	.
.	.	24ff#\L	.	.	8b~\	.	.
*	*	*8va	*	*	*	*	*
.	.	24ccc\	.	.	.	.	.
.	.	24ccccJJ 24eee\N)	.	.	.	.	.
*	*	*X8va	*	*	*	*	*
4r	.	4r	.	.	(8cc\L	.	.
.	.	.	.	.	8a\)	.	.
4C 4DD 4CC/	.	4dd 4a 4d/	.	.	(8g\	.	.
.	.	.	.	.	8f#\J)	.	.
!LO:LB:g=original	!	!	!	!	!	!	!
=102	=102	=102	=102	=102	=102	=102	=102
!	!	!	!	!	!	!	!LO:DY:t=%s subito
4BB 4BBB\	.	24rA<	.	p	(8dd\	.	p
.	.	(24D</LL	.	.	.	.	.
.	.	24d 24G</J	.	.	.	.	.
.	.	24B/L	.	.	4b\	.	.
.	.	24d/	.	.	.	.	.
.	.	24ddJJ 24g/)	.	.	.	.	.
4C 4CC\	.	24rA<	.	.	.	.	.
.	.	(24E</LL	.	.	.	.	.
.	.	24e 24G</J	.	.	.	.	.
.	.	24B/L	.	.	8dd\)	.	.
.	.	24e/	.	.	.	.	.
.	.	24eeJJ 24g/)	.	.	.	.	.
4D 4DD\	.	24rB<	.	.	(8dd\	.	.
.	.	(>24Fn</LL	.	.	.	.	.
.	.	24fn 24A</J	.	.	.	.	.
.	.	24cnX/L	.	.	4.a\)	.	.
.	.	24f/	.	.	.	.	.
.	.	24ffnJJ 24a/)	.	.	.	.	.
4D#X 4DD#X\	.	24rB<	.	.	.	.	.
.	.	(>24F#X</LL	.	.	.	.	.
.	.	24f#X 24A</J	.	.	.	.	.
.	.	24c/L	.	.	.	.	.
.	.	24f#/	.	.	.	.	.
.	.	24ff#XJJ 24a/)	.	.	.	.	.
=103	=103	=103	=103	=103	=103	=103	=103
*tuplet	*	*	*	*	*	*	*
(24EEE/LL	.	24r	.	.	(8dd\	.	.
24EE/JJ)	.	(24G/LL	.	.	.	.	.
24r	.	24g 24B/J	.	.	.	.	.
!	!	!	!	!	!	!	!LO:HP:t=cresc. ed incalzando
8r	.	24d/L	.	.	4b\	.	<
.	.	24g/	.	.	.	.	.
.	.	24ggJJ 24b/)	.	.	.	.	.
(24EEE#X/LL	.	24r	.	.	.	.	.
24EE#X/JJ)	.	(24B/LL	.	.	.	.	.
24r	.	24b 24d/J	.	.	.	.	.
8r	.	24g/L	.	.	8dd\)	.	.
.	.	24b/	.	.	.	.	.
.	.	24bbJJ 24dd/)	.	.	.	.	.
(24FFF#/LL	.	24r	.	.	(8dd\	.	.
24FF#/JJ)	.	(24A#X/LL	.	.	.	.	.
24r	.	24a#X 24e/J	.	.	.	.	.
8r	.	24g/L	.	.	4.a#X\)	.	.
.	.	24a#/	.	.	.	.	.
.	.	24aa#XJJ 24ee/)	.	.	.	.	.
(24GGG/LL	.	24r	.	.	.	.	.
24GG/JJ)	.	(24c#X/LL	.	.	.	.	.
24r	.	24cc#X 24e/J	.	.	.	.	.
8r	.	24a#/L	.	.	.	.	.
.	.	24cc#/	.	.	.	.	.
.	.	24ccc#XJJ 24ee/)	.	.	.	.	.
!LO:LB:g=original	!	!	!	!	!	!	!
=104	=104	=104	=104	=104	=104	=104	=104
*Xtuplet	*	*	*	*	*	*	*
(24GGG#X/LL	.	24r	.	.	8dd\	.	.
24GG#X/JJ)	.	(24d\LL	.	.	.	.	.
24r	.	24dd 24f#\J	.	.	.	.	.
8r	.	24b\L	.	.	(4b\	.	.
.	.	24dd\	.	.	.	.	.
.	.	24dddJJ 24ff#\)	.	.	.	.	.
(24AAA/LL	.	24r	.	.	.	.	.
24AA/JJ)	.	(24d\LL	.	.	.	.	.
24r	.	24dd 24f#\J	.	.	.	.	.
8r	.	24ccn\L	.	.	8dd\)	.	.
.	.	24dd\	.	.	.	.	.
.	.	24dddJJ 24ff#\)	.	.	.	.	.
(<24GGG#\LL	.	24rA<	.	.	8dd\	.	.
24GG#\JJ)	.	(>24D</LL	.	.	.	.	.
24rGG	.	24d 24F#</J	.	.	.	.	.
8rGG	.	24B/L	.	.	(4b\	.	.
.	.	24d/	.	.	.	.	.
.	.	24ddJJ 24f#/)	.	.	.	.	.
(<24AAA\LL	.	24rA<	.	.	.	.	.
24AA\JJ)	.	(>24F#</LL	.	.	.	.	.
24rGG	.	24f# 24cn/J	.	.	.	.	.
8rGG	.	24d/L	.	.	8dd\)	.	.
.	.	24f#/	.	.	.	.	.
.	.	24ff#JJ 24cc/)	.	.	.	.	.
!	!	!	!	!	!LO:LB:g=original	!	!
=105	=105	=105	=105	=105	=105	=105	=105
(24GGG#X\LL	.	24rA<	.	.	8dd\	.	.
24GG#X\JJ)	.	(>24E</LL	.	.	.	.	.
24rGG	.	24e 24B</J	.	.	.	.	.
!	!	!	!	!LO:HP:t=dim. e calando	!	!	!LO:HP:t=dim. e calando
8rGG	.	24d/L	.	>	(4a\	.	>
.	.	24e/	.	.	.	.	.
.	.	24ee/JJ)	.	.	.	.	.
(<24GGGn\LL	.	24rA<	.	.	.	.	.
24GGn\JJ)	.	(>24E</LL	.	.	.	.	.
24rGG	.	24e 24A</J	.	.	.	.	.
8rGG	.	24c/L	.	.	8cc\)	.	.
.	.	24e/	.	.	.	.	.
.	.	24eeJJ 24a/)	.	.	.	.	.
(<24FFF#\LL	.	24rA<	.	.	8cc\	.	.
24FF#\JJ)	.	(24D</LL	.	.	.	.	.
24rGG	.	24d 24A</J	.	.	.	.	.
8rGG	.	24c/L	.	.	(4g""\	.	.
.	.	24d/	.	.	.	.	.
.	.	24dd/JJ)	.	.	.	.	.
(<24FFFn\LL	.	24rA<	.	.	.	.	.
24FFn\JJ)	.	(24D</LL	.	.	.	.	.
24rGG	.	24d 24G</J	.	.	.	.	.
8rGG	.	24B/L	.	.	8b\)	.	.
.	.	24d/	.	.	.	.	.
.	.	24ddJJ 24g/)	.	.	.	.	.
!LO:PB:g=original	!	!	!	!	!	!	!
=106	=106	=106	=106	=106	=106	=106	=106
(<24EEE\LL	.	24rA<	.	.	8b\	.	.
24EE\JJ)	.	(>24D</LL	.	.	.	.	.
24rEE	.	24d 24G</J	.	.	.	.	.
8rEE	.	24B/L	.	.	(4g\	.	>
.	.	24d/	.	.	.	.	.
.	.	24ddJJ 24g/)	.	.	.	.	.
(<24FFFn\LL	.	24rA<	.	.	.	.	.
24FFn\JJ)	.	(>24G</LL	.	.	.	.	.
24rEE	.	24g 24B-X</J	.	.	.	.	.
8rEE	.	24d/L	.	.	8b-X\)	.	]
.	.	24g/	.	.	.	.	.
.	.	24ggJJ 24b-X/)	.	.	.	.	.
(<24EEE\LL	.	24rA<	.	.	8b-\	.	.
24EE\JJ)	.	(>24B-X</LL	.	.	.	.	.
!	!	!LO:TX:b:i:t=molto rit.	!	!	!LO:TX:b:i:t=molto rit.	!	!
24rEE	.	24b- 24d/J	.	.	.	.	.
8rEE	.	24g/L	.	.	(4g\	.	.
.	.	24b-/	.	.	.	.	.
.	.	24bb-XJJ 24dd/)	.	.	.	.	.
(24EEE-X/LL	.	24r	.	.	.	.	.
24EE-X/JJ)	.	(24b-X\LL	.	.	.	.	.
24r	.	24bb- 24cc#X\J	.	.	.	.	.
8r	.	24gg\L	.	.	8b-\)	.	.
.	.	24bb-\	.	.	.	.	.
*	*	*8va	*	*	*	*	*
.	.	24bbb-XJJ 24ccc#X\)	.	.	.	.	.
*	*	*X8va	*	*	*	*	*
*	*	*clefF4	*	*	*	*	*
=107||	=107||	=107||	=107||	=107||	=107||	=107||	=107||
*M3/4	*	*M3/4	*	*	*M3/4	*	*
!	!	!LO:TX:a:B:t=Allegretto moderato.	!	!	!	!	!
(8.GG;</L	.	(8.G;\L	.	p	(8b-X\L	.	p
!	!	!	!	!	!LO:TX:a:B:t=Allegretto moderato.	!	!
.	.	.	.	.	8g\J)	.	.
16AA/Jk	.	16A\Jk	.	.	.	.	.
4BB-X'/)	.	4B-X'\)	.	.	4r	.	.
4D'/	.	4d'\	.	.	4r	.	.
=108	=108	=108	=108	=108	=108	=108	=108
!	!	!	!	!	!LO:TX:a:B:t=4	!	!
!	!	!	!	!	!LO:N:vis=00	!	!
8D 8DD/	.	8fn 8A 8Fn'\	.	.	0.r	.	.
8r	.	8r	.	.	.	.	.
2D 2GG/	.	2d 2B-X 2G\	.	.	.	.	.
!LO:LB:g=original	!	!	!	!	!	!	!
=109	=109	=109	=109	=109	=109	=109	=109
*^	*	*^	*	*	*	*	*
!LO:TX:a:t=P:problem:mixed beam	!	!	!	!	!	!	!	!	!
8.r	8DD\	.	8.fnL 8.A 8.Fn'>\	8ryy	.	.	.	.	.
!	!	!	!	!	!	!LO:HP:b:t=poco cresc.	!	!	!
.	8rDD	.	.	8rD	.	<	.	.	.
16ryy	.	.	16E-X</Jk	.	.	.	.	.	.
(>4.D/	4r	.	4r	2ryy	.	.	.	.	.
.	4GG\	.	4d 4B-X 4G'\	.	.	.	.	.	.
8Fn/	.	.	.	.	.	.	.	.	.
*	*	*	*v	*v	*	*	*	*	*
=110	=110	=110	=110	=110	=110	=110	=110	=110
8A'/)	8C\	.	8e 8c'\	.	.	.	.	.
8rA	8rGG	.	8r	.	.	.	.	.
(4.Fn/	4r	.	4r	.	.	.	.	.
*	*	*	*clefG2	*	*	*	*	*
.	4C 4FFn\	.	(>4fn 4A/	.	.	.	.	.
!	!	!	!	!	!LO:HP:a	!	!	!
.	.	.	.	.	>	.	.	.
8G/	.	.	.	.	.	.	.	.
=111	=111	=111	=111	=111	=111	=111	=111	=111
!	!	!	!	!	!	!LO:TX:t=P:problem:fermata nad kluczem basowym	!	!
8A'/L)	8C\	.	8cc: 8e: 8B-X'>:/)	.	]	.	.	.
.	.	.	.	.	>	.	.	.
!	!	!	!LO:TX:a:i:t=slentando	!	!	!LO:TX:b:i:t=slent.	!	!
16rA;	8rGG	.	8r	.	.	.	.	.
(16G/Jk	.	.	.	.	.	.	.	.
4Fn/	4r	.	4r	.	.	.	.	.
!	!	!	!	!	!LO:DY:rj	!	!	!
4C;:/)	4FFn;:\	.	4fn 4A;/	.	] pp	.	.	.
*v	*v	*	*	*	*	*	*	*
*	*	*clefF4	*	*	*clefF4	*	*
=112	=112	=112	=112	=112	=112	=112	=112
!	!	!LO:TX:b:i:t=a tempo ma poco animato	!	!LO:DY:b	!	!	!LO:DY:t=%s a tempo\nma poco animato
8GG#X 8GGG#X/	.	16r	.	p	8Ev\	.	p
.	.	(16E\LL	.	.	.	.	.
8r	.	16Bn\	.	.	8r	.	.
.	.	16eJJ 16d\)	.	.	.	.	.
2AA 2AAA/	.	16r	.	.	2Eu\	.	.
*	*	*clefG2	*	*	*	*	*
.	.	(16c/LL	.	.	.	.	.
.	.	16d#X/	.	.	.	.	.
.	.	16e/JJ	.	.	.	.	.
.	.	16e/LL	.	.	.	.	.
.	.	16a/	.	.	.	.	.
.	.	16cc/	.	.	.	.	.
.	.	16ee/JJ)	.	.	.	.	.
!LO:LB:g=original	!	!	!	!	!	!	!
=113	=113	=113	=113	=113	=113	=113	=113
8BB 8BBB/	.	16r	.	.	8Ev\L	.	.
.	.	(16G#X/LL	.	.	.	.	.
8r	.	16d/	.	.	16r	.	.
.	.	16fn/JJ)	.	.	16Fnu\Jk	.	.
2C 2CC/	.	16r	.	.	([2E\	.	<
.	.	(16e/LL	.	.	.	.	.
!	!	!LO:TX:b:i:t=poco-a-poco-cresc.:ext=s:problem:text with extention lines	!	!	!	!	!
.	.	.	.	<	.	.	.
.	.	16g#X/	.	.	.	.	.
.	.	16a/JJ	.	.	.	.	.
.	.	16a\LL	.	.	.	.	.
.	.	16cc\	.	.	.	.	.
.	.	16ee\	.	.	.	.	.
.	.	16aa\JJ)	.	.	.	.	.
*	*	*clefF4	*	*	*	*	*
=114	=114	=114	=114	=114	=114	=114	=114
[2DD/	.	16r	.	.	8.E\L]	.	.
.	.	(16E\LL	.	.	.	.	.
.	.	16Fn\	.	.	.	.	.
.	.	16A\JJ	.	.	16Fn'\Jk)	.	.
.	.	16G#X\LL	.	.	4E\	.	.
.	.	16A\	.	.	.	.	.
.	.	16B\	.	[[	.	.	.
.	.	16c\JJ	.	.	.	.	.
*	*	*clefG2	*	*	*	*	*
4D 4DD/]	.	16B/LL	.	.	(8G#X\L	.	.
.	.	16e/	.	.	.	.	.
.	.	16g#X/	.	.	8e\J)	.	.
.	.	16b/JJ)	.	.	.	.	.
=115	=115	=115	=115	=115	=115	=115	=115
*^	*	*^	*	*	*	*	*
*	*	*	*	*^	*	*	*	*	*
N(16CC/LL	8ryy	.	4r	4ryy	4ryy	.	.	2e\	.	.
16C/	.	.	.	.	.	.	.	.	.	.
16E/	[[<8E\	.	.	.	.	.	.	.	.	.
16G#X/JJ	.	.	.	.	.	.	.	.	.	.
4B 4E\_	4ryy	.	16r	16ryy	8ryy	.	.	.	.	.
.	.	.	16e/LL	[8.e\	.	.	.	.	.	.
.	.	.	16g#X/	.	8g#\	.	.	.	.	.
.	.	.	16bJJ 16g#/	.	.	.	.	.	.	.
4A 4E] 4C\	4ryy	.	[4ee: 4a: 4e:/_N)	4ryy	4ryy	.	.	4e\	.	.
*v	*v	*	*	*	*	*	*	*	*	*
*	*	*	*v	*v	*	*	*	*	*
!LO:LB:g=original	!	!	!	!	!	!LO:LB:g=original	!	!
=116	=116	=116	=116	=116	=116	=116	=116	=116
!	!	!	!	!	!LO:DY:t=%s con fuoco	!	!	!LO:DY:t=%s con fuoco
(16DD\LL	.	(8ee]L 8e/]	4a\	.	f	(4fn\	.	f
16AA\	.	.	.	.	.	.	.	.
16Fn\	.	8ddJ 8d/	.	.	.	.	.	.
16A\JJ)	.	.	.	.	.	.	.	.
4r	.	16r	4cc 4c\	.	.	4a\)	.	.
.	.	(<16a/LL	.	.	.	.	.	.
.	.	16fn/	.	.	.	.	.	.
.	.	16c/JJ)	.	.	.	.	.	.
4GG/	.	16r	4dd 4b\	.	.	8g\L	.	.
.	.	(<16gn/LL	.	.	.	.	.	.
.	.	16f/	.	.	.	8f\J	.	.
.	.	16d/JJ)	.	.	.	.	.	.
=117	=117	=117	=117	=117	=117	=117	=117	=117
(16CC/LL	.	4ee 4b 4e/)	2ryy	.	.	(8.e\L	.	.
16GG/	.	.	.	.	.	.	.	.
16C/	.	.	.	.	.	.	.	.
16G/JJ	.	.	.	.	.	16G'\Jk)	.	.
16c\)	.	16r	.	.	.	([2e\	.	.
!LO:N:vis=8	!	!	!	!	!	!	!	!
16r	.	(16e/LL	.	.	.	.	.	.
8ryy	.	16g/	.	.	.	.	.	.
.	.	16b/JJ)	.	.	.	.	.	.
4r	.	(16b-X\LL	4b-/	.	.	.	.	.
.	.	16ee\	.	.	.	.	.	.
.	.	16bb-X\	.	.	.	.	.	.
.	.	16eee\JJ)	.	.	.	.	.	.
*	*	*v	*v	*	*	*	*	*
=118	=118	=118	=118	=118	=118	=118	=118
!LO:TX:t=P:problem:mixed beam	!	!	!	!	!	!	!
N(16FFn/LL	.	8ryy	.	.	8e\L]	.	.
16C/	.	.	.	.	.	.	.
16A/	.	16ryy	.	.	8d\J)	.	.
16e>\JJ	.	16ryy	.	.	.	.	.
!LO:TX:b:i:t=poco-a-poco:dur=2q:ext=s:problem:text with extention lines	!	!	!	!	!LO:TX:b:i:t=poco a poco allarg.	!	!
4r	.	16eeLL 16a\	.	.	(8c'\	.	.
.	.	16cc\	.	.	.	.	.
.	.	16ee\	.	.	8r	.	.
.	.	16eeeJJ 16aa\N)	.	.	.	.	.
!LO:TX:t=P:problem:mixed beam	!	!	!	!	!	!	!
(16BBB/LL	.	8ryy	.	.	8d'\)	.	.
16BB/	.	.	.	.	.	.	.
16d>\	.	8ryy	.	.	8r	.	.
16dd>JJ 16a>\)	.	.	.	.	.	.	.
!LO:LB:g=original	!	!	!	!	!	!	!
=119	=119	=119	=119	=119	=119	=119	=119
!LO:TX:b:i:t=allargando-e-dimin.:dur=14s:ext=s:problem:text with extention lines	!	!	!	!	!	!	!
(16EE/LL	.	8r	.	.	8e\L	.	.
16BB/	.	.	.	.	.	.	.
16G#X/JJ)	.	(16d/LL	.	.	16r	.	.
16r	.	16ddJJ 16g#X/)	.	.	16B\Jk	.	.
4r	.	8.r	.	.	([2e\	.	.
.	.	(>[16gn/	.	.	.	.	.
4AA 4AAA/	.	4cc#X 4g] 4c#X/)	.	.	.	.	.
=120	=120	=120	=120	=120	=120	=120	=120
(16DD/LL	.	8r	.	.	8.e\L]	.	.
16AA/	.	.	.	.	.	.	.
16F#/JJ)	.	(16cn/LL	.	.	.	.	.
16r	.	16ccJJ 16f#/)	.	.	16d\Jk)	.	.
4r	.	8.r	.	.	(4c\	.	>
.	.	(>[16fn/	.	.	.	.	.
4GG/	.	4b 4f] 4B/)	.	.	4d\)	.	.
=121	=121	=121	=121	=121	=121	=121	=121
*^	*	*	*	*	*	*	*
!LO:TX:t=P:problem:mixed beam	!	!	!	!	!	!	!	!
!LO:N:vis=2.	!	!	!	!	!	!	!	!
(>16CC/LL	[2.CC\	.	8ryy	.	.	8e\L	.	.
16E/	.	.	.	.	.	.	.	.
16B>\	.	.	8ryy	.	.	16r	.	.
16b>JJ 16e>\)	.	.	.	.	.	16B\Jk	.	.
2ryy	.	.	8.r	.	.	[2e\	.	]
.	.	.	(>[>16e/	.	.	.	.	.
.	.	.	8.b-XL 8.e] 8.B-X/)	.	.	.	.	.
.	.	.	(>[16e/Jk	.	.	.	.	.
=122	=122	=122	=122	=122	=122	=122	=122	=122
*	*	*	*^	*	*	*	*	*
!LO:TX:t=P:problem:mixed beam	!	!	!	!	!	!	!LO:TX:b:i:t=rit. assai	!	!
(<16CC/LL]	8ryy	.	4a 4e] 4A/)	8ryy	.	.	8.e\L]	.	.
16E/	.	.	.	.	.	.	.	.	.
16A>\	8ryy	.	.	8ryy	.	.	.	.	.
16e>\JJ)	.	.	.	.	.	.	(16E\Jk	.	.
(8.BB/L	(4BBB\	.	(4g~/	(8.G\L	.	.	4.e\	.	.
16EE/Jk)	.	.	.	16e\Jk)	.	.	.	.	.
(8.AA#X/L	4AAA#X\)	.	4f#~/)	(8.F#\L	.	.	.	.	.
.	.	.	.	.	.	.	8f#\)	.	.
16EE/Jk)	.	.	.	16e\Jk)	.	.	.	.	.
*v	*v	*	*	*	*	*	*	*	*
*	*	*v	*v	*	*	*	*	*
!LO:PB:g=original	!	!	!	!	!LO:LB:g=original	!	!
=123||	=123||	=123||	=123||	=123||	=123||	=123||	=123||
*k[f#c#g#d#]	*	*k[f#c#g#d#]	*	*	*k[f#c#g#d#]	*	*
*M4/4	*	*M4/4	*	*	*M4/4	*	*
*met(c)	*	*met(c)	*	*	*met(c)	*	*
*^	*	*^	*	*	*	*	*
!	!	!	!	!	!	!LO:DY:rj	!LO:TX:a:B:t=Tempo I.	!	!
!	!	!	!LO:TX:a:B:t=Tempo I.	!	!	!LO:HP:a	!LO:TX:b:i:t=dolcissimo	!	!
4BB 4BBB/	2ryy	.	(4e/	8.B\L	.	p <	2g#\	.	.
!LO:TX:b:i:t=sempre legato	!	!	!	!	!	!	!	!	!
.	.	.	.	16c#\Jk	.	.	.	.	.
4B 4G# 4BB\	.	.	4b/	8.d#\L	.	.	.	.	.
.	.	.	.	16e\Jk	.	[	.	.	.
2B/	4A\	.	4dd#/	8.f#\L	.	.	(4f#\	.	.
!	!	!	!	!	!	!LO:HP:a	!	!	!
.	.	.	.	.	.	>	.	.	.
.	.	.	.	16cc#\Jk	.	.	.	.	.
.	8.G#\L	.	4ee/)	8.b\L	.	.	8e\L	.	.
.	.	.	.	.	.	.	8f#\J)	.	.
.	16Gn\Jk	.	.	16e\Jk	.	]	.	.	.
=124	=124	=124	=124	=124	=124	=124	=124	=124	=124
8.c#/L	2F#\	.	(2ee/	8.a\L	.	.	(4.e\	.	.
16A/Jk	.	.	.	16cc#\Jk	.	.	.	.	.
8.B/L	.	.	.	8.b\L	.	.	.	.	.
!	!	!	!	!	!	!	!	!	!LO:HP:t=poco cresc.
.	.	.	.	.	.	.	8c#\)	.	<
16c#/Jk	.	.	.	16a\Jk	.	.	.	.	.
2B/	8.B\L	.	4dd#/	8.g#\L	.	.	(8d#\L	.	.
.	.	.	.	.	.	.	8f#\	.	.
.	16A\Jk	.	.	16f#\Jk	.	.	.	.	.
.	8.G#X\L	.	8.b/L	4e\	.	.	8e\	.	.
.	.	.	.	.	.	.	8c#\J)	.	.
.	16Gn\Jk	.	16a#X/Jk)	.	.	.	.	.	.
*v	*v	*	*	*	*	*	*	*	*
*	*	*v	*v	*	*	*	*	*
*	*	*	*	*	*clefC4	*	*
=125	=125	=125	=125	=125	=125	=125	=125
*	*	*^	*	*	*	*	*
*	*	*	*^	*	*	*	*	*
8.F#\L	.	[4an/	8.e/L	2B\	.	.	(4.f#\	.	.
!	!	!	!	!	!	!LO:HP:t=poco cresc.	!	!	!
.	.	.	.	.	.	<	.	.	.
16E\Jk	.	.	16c#/Jk	.	.	.	.	.	.
8.D#\L	.	8.a]L 8.f#/	4ryy	.	.	.	.	.	.
.	.	.	.	.	.	.	8g#\)	.	.
16Dn\Jk	.	16g#Jk 16fn/	.	.	.	.	.	.	.
8.C#/L	.	8.e/L	4A\	2ryy	.	.	(8a\L	.	.
.	.	.	.	.	.	.	8e#X\J	.	.
16Cn/Jk	.	[<16d#/Jk	.	.	.	.	.	.	.
!	!	!	!	!	!	!	!LO:TUP:a	!	!
8.BB/L	.	8.d#/L]	[4B\	.	.	.	12g#\L)	.	.
.	.	.	.	.	.	.	12a~\	.	.
.	.	.	.	.	.	.	12b~\J	.	.
16AA/Jk	.	16f/Jk	.	.	.	.	.	.	.
*	*	*	*v	*v	*	*	*	*	*
=126	=126	=126	=126	=126	=126	=126	=126	=126
!	!	!	!	!	!LO:HP:a	!	!	!
8.GG#/L	.	2e#X/	8.B\L]	.	<	(4.cc#\	.	.
16BB/Jk	.	.	16d#\Jk	.	.	.	.	.
8.AA/L	.	.	8.c#\L	.	.	.	.	.
.	.	.	.	.	.	8dd#\)	.	>
16GGn/Jk	.	.	[16B\Jk	.	[	.	.	.
!	!	!	!	!	!LO:HP:a	!	!	!
8.FF#/L	.	2en/	8.B\L]	.	>	(4ee\	.	.
16CC#/Jk	.	.	16G#\Jk	.	.	.	.	.
8.FF#/L	.	.	8.A#X\L	.	.	8cc#\L	.	]
.	.	.	.	.	.	8en\J)	.	.
16AA#X/Jk	.	.	16c#\Jk	.	]	.	.	.
*	*	*v	*v	*	*	*	*	*
!LO:LB:g=original	!	!	!	!	!	!	!
=127	=127	=127	=127	=127	=127	=127	=127
8.r	.	8.r	.	.	(4.e\	.	.
(<[16G#\	.	(>[16e [16B/	.	.	.	.	.
4G#] 4BB\)	.	4b 4e] 4B/])	.	.	.	.	.
.	.	.	.	.	8f#\)	.	.
8.r	.	8.r	.	.	4g#\	.	.
!	!	!	!	!LO:HP:a	!	!	!
(<[16G#\	.	(>[16e [16B#X/	.	<	.	.	.
4G#] 4AA#X\)	.	4b#X 4e] 4B#/])	.	[[	(8f#\L	.	.
.	.	.	.	.	8e\J)	.	.
=128	=128	=128	=128	=128	=128	=128	=128
4r	.	4r	.	.	(8.e\L	.	.
.	.	.	.	.	16f#\Jk)	.	.
4A:: 4E:: 4AA::\	.	4cc#:: 4e:: 4c#::/	.	.	[4gn\	.	.
8.r	.	8.r	.	.	8g\]	.	.
.	.	.	.	.	(4f#\	.	<
!	!	!	!	!LO:HP:a	!	!	!
(<[16cn [16F#\	.	(>[16d#/	.	>	.	.	.
4c] 4F#] 4AA\)	.	4dd# 4ccn 4f# 4d#/])	.	]]	.	.	.
.	.	.	.	.	8e\)	.	.
.	.	.	.	.	.	.	[
*	*	*	*	*	*clefF4	*	*
!	!	!	!	!	!LO:LB:g=original	!	!
=129	=129	=129	=129	=129	=129	=129	=129
*	*	*^	*	*	*	*	*
!	!	!LO:TX:a:i:t=espress.	!	!	!	!	!	!
(4GG# 4GGG#/	.	(4b/	8.eL 8.B\	.	.	(8B\	.	.
.	.	.	.	.	.	4G#\	.	.
.	.	.	[>16e\Jk	.	.	.	.	.
4AA 4AAA/	.	4cc#X/	8.e]L 8.c#\	.	.	.	.	.
.	.	.	.	.	.	8B\)	.	.
.	.	.	16e\Jk	.	.	.	.	.
2BB 2BBB/)	.	4cc##X/)	8.c##X\L	.	.	2F#\	.	.
.	.	.	[>16bJk [16a\	.	.	.	.	.
.	.	4ryy	4dd# 4b] 4a] 4d#/	.	.	.	.	.
=130	=130	=130	=130	=130	=130	=130	=130	=130
*^	*	*	*	*	*	*	*	*
(4GG#/	8.GGG#\L	.	4bb 4b\	(8.ee/L	.	.	(8BB/	.	.
.	.	.	.	.	.	.	4GG#/	.	.
.	16EE\Jk	.	.	[>16ee/Jk	.	.	.	.	.
4AA/	8.AAA\L	.	4ccc# 4cc#\	8.ee/L]	.	.	.	.	.
.	.	.	.	.	.	.	8BB/)	.	.
.	16EE\Jk	.	.	16ee/Jk	.	.	.	.	.
[<4BB/	8.BBB\L	.	4ccc##X 4cc##X\	8.rff	.	.	(4.FF#/	.	.
.	[16F#\Jk	.	.	[>16bb [16aa/	.	.	.	.	.
4B 4F#] 4BB\])	4ryy	.	4ryy	4ddd# 4bb] 4aa] 4dd#\)	.	.	.	.	.
.	.	.	.	.	.	.	8BB/)	.	.
*v	*v	*	*	*	*	*	*	*	*
*	*	*v	*v	*	*	*	*	*
!LO:LB:g=original	!	!	!	!	!	!	!
=131	=131	=131	=131	=131	=131	=131	=131
4r	.	4r	.	.	(8BB/	.	.
.	.	.	.	.	4GG#/	.	>
!	!	!	!	!LO:DY:rj	!	!	!
4B 4E 4BB\	.	(>4cc##X 4g# 4c##X/	.	pp	.	.	.
.	.	.	.	.	8BB/)	.	.
2B 2F# 2BB\	.	2dd# 2a 2d#/)	.	.	(8BB/	.	.
.	.	.	.	.	4.FF#/)	.	.
.	.	.	.	.	.	.	]
*clefG2	*	*	*	*	*	*	*
=132	=132	=132	=132	=132	=132	=132	=132
*^	*	*	*	*	*	*	*
!	!	!	!LO:TX:b:i:t=espress.	!	!	!LO:TX:a:B:t=1	!	!
(8b/	4r	.	4r	.	.	1r	.	.
4g#/	.	.	.	.	.	.	.	.
.	2.B\	.	(4ccc##X 4gg# 4cc##X\	.	.	.	.	.
8b/)	.	.	.	.	.	.	.	.
(<8b/	.	.	2ddd# 2aa 2dd#\)	.	.	.	.	.
4.f#/)	.	.	.	.	.	.	.	.
*v	*v	*	*	*	*	*	*	*
*	*	*	*	*	*clefC4	*	*
=133	=133	=133	=133	=133	=133	=133	=133
*	*	*^	*	*	*	*	*
!	!	!LO:TX:a:i:t=poco a poco affretando e rinforzando	!	!	!	!	!	!LO:DY:t=molto %s
4r	.	4r	4ryy	.	.	(8b\	.	p
.	.	.	.	.	.	4g#\	.	.
*clefF4	*	*	*	*	*	*	*	*
(4GG#/	.	(8d#/L	4B\	.	.	.	.	.
.	.	[<8e#X/J	.	.	.	8b\)	.	.
!	!	!	!	!	!	!LO:TX:b:i:t=poco a poco affretando e rinforzando	!	!
4AA/	.	8e#/L]	4c#\	.	.	(8b\	.	.
.	.	8f#/J	.	.	.	4f#\	.	.
8BB/L	.	4d# 4A/	4ryy	.	.	.	.	.
8BB#X/J	.	.	.	.	.	8g#\)	.	.
*	*	*v	*v	*	*	*	*	*
=134	=134	=134	=134	=134	=134	=134	=134
4C#/)	.	4en 4G#/	.	.	(8e\	.	.
.	.	.	.	.	4c#\	.	.
(4Dn 4DDn/	.	4g# 4e 4G#/	.	.	.	.	.
.	.	.	.	.	8e\)	.	.
4C# 4CC#/	.	2f##X 2e 2F##X/)	.	.	(4.B\	.	.
4Cn 4CCn/)	.	.	.	.	.	.	.
.	.	.	.	.	8A#X\)	.	.
=135	=135	=135	=135	=135	=135	=135	=135
*	*	*^	*	*	*	*	*
(4BB 4BBB/	.	(4g# 4G#/	2e\	.	.	(8e\	.	<
.	.	.	.	.	.	4c#\	.	.
4AA#X 4AAA#X/	.	4gn 4Gn/	.	.	.	.	.	.
.	.	.	.	.	.	8e\)	.	[
*	*	*clefF4	*	*	*	*	*	*
4AAn 4AAAn/	.	4f# 4F#\	2B/	.	.	(8e\	.	.
.	.	.	.	.	.	4B\	.	.
4GG# 4GGG#/	.	4e#X 4E#X\	.	.	.	.	.	.
.	.	.	.	.	.	8b\)	.	.
*	*	*v	*v	*	*	*	*	*
*	*	*	*	*	*clefG2	*	*
!LO:LB:g=original	!	!	!	!	!LO:LB:g=original	!	!
=136	=136	=136	=136	=136	=136	=136	=136
4GGn 4GGGn/	.	4en 4B 4En\	.	.	(8ee\	.	.
.	.	.	.	.	4cc#\	.	.
4FF# 4FFF#/	.	4c# 4A#X 4E\	.	>	.	.	.
.	.	.	.	.	8ee\)	.	.
!	!	!	!	!	!	!	!LO:HP:a:t=allarg. e dim.
4GG 4GGG/	.	4e 4B 4E\	.	.	(8ee\	.	>
.	.	.	.	.	4cc#\	.	.
!	!	!LO:TX:b:i:t=allargando	!	!	!	!	!
4FF# 4FFF#/	.	4c# 4A# 4E\	.	.	.	.	.
.	.	.	.	.	8ee\)	.	.
=137	=137	=137	=137	=137	=137	=137	=137
*	*	*^	*	*	*	*	*
4GGn 4GGGn/	.	4e 4B/	2E\	.	.	(8ee\	.	.
.	.	.	.	.	.	4ccn\	.	.
4FF# 4FFF#/	.	4cn 4A#X/	.	.	.	.	.	.
.	.	.	.	.	.	8ee\)	.	.
4FFn 4FFFn/	.	8e/	2B 2An\	.	.	2aa\	0	.
.	.	4d#/	.	.	]	.	.	.
4BBB/)	.	.	.	.	.	.	.	.
.	.	8a/)	.	.	.	.	.	.
=138	=138	=138	=138	=138	=138	=138	=138	=138
!	!	!LO:TX:b:i:t=dolcissimo	!	!	!	!LO:TX:a:i:t=a tempo	!	!
!	!	!LO:TX:a:i:t=a tempo	!	!	!	!LO:TX:b:B:t=1	!	!
16r	.	(2g# 2G#\	2.B/	.	.	1r	.	.
(16EEE/LL	.	.	.	.	.	.	.	.
16EE/	.	.	.	.	.	.	.	.
16BB/JJ	.	.	.	.	.	.	.	.
16C#\LL	.	.	.	.	.	.	.	.
16BB\	.	.	.	.	.	.	.	.
16B\	.	.	.	.	.	.	.	.
*clefG2	*	*	*	*	*	*	*	*
16b\JJ)	.	.	.	.	.	.	.	.
16r	.	4f# 4F#\	.	.	<	.	.	.
*clefF4	*	*	*	*	*	*	*	*
(16AA/LL	.	.	.	.	.	.	.	.
16C#/	.	.	.	.	.	.	.	.
16BB/JJ)	.	.	.	.	.	.	.	.
16r	.	8eL 8E\	4B/	.	.	.	.	.
(16GG#/LL	.	.	.	.	.	.	.	.
16C#/	.	8f#J 8F#\	.	.	[	.	.	.
16BB/JJ)	.	.	.	.	.	.	.	.
*	*	*	*	*	*	*clefC4	*	*
=139	=139	=139	=139	=139	=139	=139	=139	=139
16r	.	4.e 4.E\	2B 2A/	.	>	2a\	.	.
(16FFF#/LL	.	.	.	.	.	.	.	.
16FF#/	.	.	.	.	.	.	.	.
16BB/JJ	.	.	.	.	.	.	.	.
16C#\LL	.	.	.	.	.	.	.	.
16BB\	.	.	.	.	.	.	.	.
16A\	.	8c# 8C#\)	.	.	]	.	.	.
*clefG2	*	*	*	*	*	*	*	*
16a\JJ)	.	.	.	.	.	.	.	.
8r	.	(4d#/	16d#LL 16D#\	.	.	(4g#\	.	<
.	.	.	16G#\	.	.	.	.	.
*clefF4	*	*	*	*	*	*	*	*
8BB 8BBB/	.	.	16B\	.	.	.	.	.
.	.	.	16d#\JJ	.	.	.	.	.
*	*	*clefG2	*	*	*	*	*	*
8r	.	16dd#LL 16f#\	4ryy	.	.	8f#\L	.	.
.	.	16b\	.	.	.	.	.	.
8AA 8AAA/	.	16dd#\	.	.	.	8g#\J)	.	[
.	.	16ddd#JJ 16bb\)	.	.	.	.	.	.
*	*	*v	*v	*	*	*	*	*
*	*	*clefF4	*	*	*	*	*
!LO:LB:g=original	!	!	!	!	!	!	!
=140	=140	=140	=140	=140	=140	=140	=140
!	!	!LO:TX:b:i:t=espress.	!	!	!	!	!
(2GG# 2GGG#/	.	16r	.	.	(8.f#\L	.	>
.	.	(16BB\LL	.	.	.	.	.
.	.	16B\	.	.	.	.	.
.	.	16D#\JJ	.	.	16d#\Jk)	.	.
.	.	16E\LL	.	<	2e\	.	.
.	.	16e 16G#\	.	.	.	.	.
.	.	16B\	.	.	.	.	]
.	.	16E\JJ)	.	.	.	.	.
*	*	*clefG2	*	*	*	*	*
4FF# 4FFF#/	.	16r	.	.	.	.	.
.	.	(16B/LL	.	.	.	.	.
.	.	16b 16e/	.	.	.	.	.
!	!	!LO:TX:b:i:t=accelerando	!	!	!	!	!
.	.	16a/JJ)	.	.	.	.	.
!	!	!	!	!	!LO:TX:a:i:t=accel.	!	!
8EEL 8EEE/	.	16r	.	.	4r	.	.
.	.	(16b\LL	.	[	.	.	.
8FF#J 8FFF#/	.	16bb 16ee\	.	.	.	.	.
.	.	16gg#\JJ)	.	.	.	.	.
*	*	*clefF4	*	*	*	*	*
=141	=141	=141	=141	=141	=141	=141	=141
!LO:TX:b:i:rj:t=con 8va:dur=1q:ext=ud:problem:text with extention lines	!	!	!	!	!LO:TX:a:B:t=1	!	!
8.EE 8.EEEyy/L	.	16r	.	>	1r	.	.
.	.	(16BB\LL	.	.	.	.	.
.	.	16B 16F#\	.	.	.	.	.
16CC# 16CCC#yy/Jk)	.	16A\JJ	.	.	.	.	.
*	*	*clefG2	*	*	*	*	*
[2.DD#/	.	16r	.	]	.	.	.
.	.	16B/LL	.	<	.	.	.
.	.	16b 16f#/	.	.	.	.	.
.	.	16a/JJ	.	.	.	.	.
.	.	16b\LL	.	.	.	.	.
.	.	16bb 16ff#\	.	.	.	.	.
.	.	16aa\	.	.	.	.	.
.	.	16bb\JJ	.	.	.	.	.
*	*	*8va	*	*	*	*	*
.	.	16bbbLL 16fff#\	.	.	.	.	.
.	.	16aaa\	.	.	.	.	.
.	.	16bb\	.	.	.	.	.
.	.	16ff#\JJ	.	[	.	.	.
*	*	*X8va	*	*	*	*	*
=142||	=142||	=142||	=142||	=142||	=142||	=142||	=142||
*M3/4	*	*M3/4	*	*	*M3/4	*	*
*	*	*^	*	*	*	*	*
*	*	*	*^	*	*	*	*	*
!	!	!	!	!	!	!	!LO:TX:b:B:t=1	!	!
!	!	!LO:TX:b:i:t=slentando	!	!	!	!	!LO:TX:a:i:t=slentando	!	!
2.DD#/]	.	16bbLL 16aa\	4ryy	4ryy	.	>	2.r	.	.
.	.	16b\	.	.	.	.	.	.	.
.	.	16f#\	.	.	.	.	.	.	.
.	.	16bJJ 16a\	.	.	.	.	.	.	.
*	*	*clefF4	*	*	*	*	*	*	*
.	.	16B\LL	16ryy	8ryy	.	.	.	.	.
.	.	16F#\	[8.F#/	.	.	]	.	.	.
.	.	[[>16B\	.	[<8A/	.	.	.	.	.
.	.	[<16BB\JJ	.	.	.	.	.	.	.
.	.	4B]] 4A] 4F#] 4BB\])	4ryy	4rFFFyy	.	.	.	.	.
*	*	*v	*v	*v	*	*	*	*	*
*	*	*	*	*	*clefF4	*	*
!LO:PB:g=original	!	!	!	!	!LO:LB:g=original	!	!
=143	=143	=143	=143	=143	=143	=143	=143
!	!	!LO:TX:a:B:t=Allegretto molto moderato.	!	!	!LO:TX:a:B:t=Allegretto molto moderato.	!	!
2.r	.	2.r	.	.	(8.BBv/L	.	p
.	.	.	.	.	16C#'/Jk)	.	.
.	.	.	.	.	4.D#\	.	.
.	.	.	.	.	(8F#\	.	.
=144	=144	=144	=144	=144	=144	=144	=144
8FF#/	.	8A 8C#\	.	pp	8A'\)	.	.
8r	.	8r	.	.	8r	.	.
4r	.	4r	.	.	2F#;\	.	.
(4BBB;/	.	(4F# 4D#;\	.	.	.	.	.
=145	=145	=145	=145	=145	=145	=145	=145
!	!	!LO:TX:b:i:t=poco animato	!	!	!LO:TX:b:i:t=poco animato	!	!
8FF#/)	.	8A 8C#\)	.	.	(8.A\L	.	.
8r	.	8r	.	.	.	.	.
.	.	.	.	.	16G#'\Jk)	.	.
4r	.	4r	.	.	4.F#\	.	.
(4BBB/	.	(4F# [4Dn\	.	.	.	.	.
.	.	.	.	.	(8A\	.	.
=146	=146	=146	=146	=146	=146	=146	=146
8EE/)	.	8G# 8D\])	.	.	8c#\)	.	.
8r	.	8r	.	.	8r	.	.
4r	.	4r	.	.	(4.A\	.	.
(4AAA/	.	(4A 4C#\	.	.	.	.	.
.	.	.	.	.	8B\)	.	.
=147	=147	=147	=147	=147	=147	=147	=147
8EE/)	.	8G# 8Dn\)	.	.	(8c#\L	.	.
!	!	!LO:TX:b:i:t=slentando	!	!	!	!	!
8r	.	8r	.	.	16rA	.	.
!	!	!	!	!	!LO:TX:b:i:t=slentando	!	!
.	.	.	.	.	16B'\Jk)	.	.
4r	.	4r	.	.	(4A\	.	.
4EE:: 4AAA;::/	.	4A:: 4C#;::\	.	.	4E;\)	.	.
!LO:LB:g=original	!	!	!	!	!	!	!
=148	=148	=148	=148	=148	=148	=148	=148
!	!	!	!	!	!LO:TX:a:i:t=a tempo \npoco animato	!	!
!	!	!LO:TX:a:i:t=a tempo poco animato	!	!	!LO:TX:b:B:t=2	!	!
!	!	!	!	!	!LO:N:vis=0	!	!
16r	.	8G#\	.	.	1.r	.	.
(16BBB#X/LL	.	.	.	.	.	.	.
16GG#/	.	8r	.	.	.	.	.
16D#/JJ)	.	.	.	.	.	.	.
4r	.	2G#\	.	.	.	.	.
8E 8GG# 8CC#'>/	.	.	.	.	.	.	.
8r	.	.	.	.	.	.	.
=149	=149	=149	=149	=149	=149	=149	=149
!	!	!	!	!LO:HP:t=poco cresc.	!	!	!
16r	.	(8.G#\L	.	<	.	.	.
(16DD#/LL	.	.	.	.	.	.	.
16GG#/	.	.	.	.	.	.	.
16F#/JJ)	.	16A\Jk)	.	.	.	.	.
4r	.	2G#\	.	.	.	.	.
8E 8GG# 8EE'>/	.	.	.	.	.	.	.
8r	.	.	.	.	.	.	.
=150	=150	=150	=150	=150	=150	=150	=150
!	!	!	!	!	!LO:TX:a:i:t=poco rit.	!	!
!	!	!	!	!	!LO:TX:b:B:t=2	!	!
!	!	!	!	!	!LO:N:vis=0	!	!
16r	.	(8.G#\L	.	<	1.r	.	.
(16FF#/LL	.	.	.	.	.	.	.
16GG#/	.	.	.	.	.	.	.
16D#/JJ)	.	16A\Jk	.	.	.	.	.
!LO:TX:a:i:t=poco rit.	!	!	!	!	!	!	!
4r	.	4G#\	.	.	.	.	.
*	*	*clefG2	*	*	*	*	*
4r	.	8.B#X/L	.	.	.	.	.
.	.	16g#/Jk)	.	[	.	.	.
=151	=151	=151	=151	=151	=151	=151	=151
*	*	*^	*	*	*	*	*
4r	.	2.g#^/	4r	.	.	.	.	.
.	.	.	.	.	>	.	.	.
(4E 4EE/	.	.	(4c# 4G#\	.	.	.	.	.
4C# 4CC#/)	.	.	4e 4A#X\)	.	.	.	.	.
.	.	.	.	.	]	.	.	.
*	*	*v	*v	*	*	*	*	*
!LO:LB:g=original	!	!	!	!	!LO:LB:g=original	!	!
=152||	=152||	=152||	=152||	=152||	=152||	=152||	=152||
*M4/4	*	*M4/4	*	*	*M4/4	*	*
*met(c)	*	*met(c)	*	*	*met(c)	*	*
!	!	!LO:TX:a:B:t=Tempo I.	!	!	!LO:TX:a:B:t=Tempo I.	!	!LO:DY:t=%s espress.
4r	.	4r	.	.	(4.G#\	.	p
4G#:: 4BB::\	.	4b:: 4e:: 4B::/	.	p	.	.	.
.	.	.	.	.	8A\)	.	.
4r	.	4r	.	.	(4B\	.	.
4G# 4BB\	.	4cc# 4e#X 4c#/	.	.	8A\L	.	.
.	.	.	.	.	8G#\J)	.	.
=153	=153	=153	=153	=153	=153	=153	=153
!	!	!	!	!LO:DY:a:t=poco rinforzando	!	!	!
4r	.	4r	.	rfz	(4.B\	.	.
4G# 4BB\	.	4ddn 4e#X 4dn/	.	.	.	.	.
.	.	.	.	.	8c#\)	.	.
4r	.	4r	.	.	(4d#\	.	<
4A:: 4BB::\	.	4dd#X:: 4f#:: 4d#X::/	.	.	8c#\L	.	.
.	.	.	.	.	8B\J)	.	.
*	*	*	*	*	*clefC4	*	*
=154	=154	=154	=154	=154	=154	=154	=154
4r	.	4r	.	.	(8.e\L	.	.
.	.	.	.	.	16f#\Jk)	.	.
4B:: 4G#:: 4BB::\	.	4ee:: 4b:: 4e::/	.	.	[4g#\	.	.
4r	.	4r	.	.	8g#\]	.	[
.	.	.	.	.	4f#\	.	.
4c#:: 4F#:: 4BB::\	.	4ff#:: 4a#X:: 4e::\	.	.	.	.	.
.	.	.	.	.	(8e\	.	.
=155	=155	=155	=155	=155	=155	=155	=155
*	*	*^	*	*	*	*	*
4r	.	4r	4ryy	.	.	8b\)	.	.
.	.	.	.	.	.	(4g#\	.	.
4BB 4EE 4BBB/	.	(>4b 4g# 4e 4B/	4ryy	.	>	.	.	.
.	.	.	.	.	.	8b\)	.	>
2BB 2FF# 2BBB/	.	2an 2f# 2A/)	(4e\	.	.	[2b\	.	.
.	.	.	4d#\)	.	]	.	.	]]
*	*	*v	*v	*	*	*	*	*
!LO:LB:g=original	!	!	!	!	!	!	!
=156	=156	=156	=156	=156	=156	=156	=156
*	*	*Xbrackettup	*	*	*	*	*
*tuplet	*	*tuplet	*	*	*	*	*
!LO:TUP:a:r=4:num=6:problem:klamra łukowa	!	!	!	!	!	!	!
24EEE/LL	.	24ryy	.	.	4b\]	.	.
24EE/	.	24ryy	.	.	.	.	.
24BB/JJ	.	24ryy	.	.	.	.	.
24F#\	.	24ryy	.	.	.	.	.
24G#/LL	.	24ryy	.	.	.	.	.
24g#>JJ 24B/	.	24ryy	.	.	.	.	.
!	!	!LO:TUP:a:r=4:num=6:problem:klamra łukowa	!	!	!	!	!
24ryy	.	24f#/	.	.	2g#\	.	.
24ryy	.	24E<\LL	.	.	.	.	.
24ryy	.	24B<\JJ	.	.	.	.	.
24ryy	.	24f#\	.	.	.	.	.
24ryy	.	24g#/LL	.	.	.	.	.
24ryy	.	24gg#JJ 24b/	.	.	.	.	.
16ryy	.	16ee/	.	.	.	.	.
!	!	!LO:TX:b:i:t=morendo	!	!	!	!	!
16e>\LL	.	16ryy	.	.	.	.	.
16b>\	.	16ryy	.	.	.	.	.
16ee>\JJ	.	16ryy	.	.	.	.	.
*	*	*	*	*	*clefF4	*	*
*	*	*8va	*	*	*	*	*
4ryy	.	16gg#/LL	.	.	[4B\	.	.
.	.	16ggg# 16bb/	.	.	.	.	.
.	.	16eee/	.	.	.	.	.
.	.	16ggg#/JJ	.	.	.	.	.
*clefG2	*	*	*	*	*	*	*
=157	=157	=157	=157	=157	=157	=157	=157
8ee:: 8b:: 8e::/	.	8gggg#:: 8eeee:: 8bbb:: 8ggg#::\	.	.	2B\]	.	.
*	*	*X8va	*	*	*	*	*
8r	.	8r	.	.	.	.	.
4r	.	4r	.	.	.	.	.
*clefF4	*	*	*	*	*	*	*
4e:: 4B:: 4E::\	.	4gg#:: 4ee:: 4b:: 4g#::\	.	.	[2G#\	.	>
4r	.	4r	.	.	.	.	.
=158	=158	=158	=158	=158	=158	=158	=158
4E:: 4BB:: 4EE::/	.	4g#:: 4e:: 4B:: 4G#::/	.	.	1G#_	.	.
4r	.	4r	.	.	.	.	.
4E:: 4BB:: 4EE::/	.	4g#:: 4e:: 4B:: 4G#::/	.	.	.	.	.
4r	.	4r	.	.	.	.	.
*	*	*clefF4	*	*	*	*	*
=159	=159	=159	=159	=159	=159	=159	=159
4EE 4EEE~/	.	4G# 4E 4BB~\	.	.	2G#\]	.	.
.	.	.	.	.	.	.	]
4r	.	4r	.	.	.	.	.
2r	.	2r	.	.	2r	.	.
==	==	==	==	==	==	==	==
*-	*-	*-	*-	*-	*-	*-	*-
!!!system-decoration: g1{(g2)}
!!!RDF**kern: i = editorial accidental
!!!RDF**kern: > = above
!!!RDF**kern: < = below
!!!RDF**kern: N = linked
!!!RDF**dynam: > = "dim.", fontstyle= "italic"
!!!ENC: Berenika Jozajtis
!!!EED: Katarzyna Serwa
!!!END: 2023-10-30
!!!EEV: 2023-11-28
